;This Gcode has been generated specifically for the LulzBot Mini
;Basic settings: Layer height: 0.38 Walls: 1 Fill: 20
;Filament Diameter: 2.85
;Nozzle Size: 0.5
G21                          ; metric values
G90                          ; absolute positioning
M82                          ; set extruder to absolute mode
M107                         ; start with the fan off
G92 E0                       ; set extruder position to 0
M140 S60; get bed heating up
G28                          ; home all
M109 S140                    ; set to cleaning temp and wait
G1 Z150 E-30 F75             ; suck up XXmm of filament
M109 S140                    ; heat up rest of way
G1 X45 Y174 F11520           ; move behind scraper
G1 Z0  F1200                 ; CRITICAL: set Z to height of top of scraper
G1 X45 Y174 Z-.5 F4000       ; wiping ; plunge into wipe pad
G1 X55 Y172 Z-.5 F4000       ; wiping
G1 X45 Y174 Z0 F4000         ; wiping
G1 X55 Y172 F4000            ; wiping
G1 X45 Y174 F4000            ; wiping
G1 X55 Y172 F4000            ; wiping
G1 X45 Y174 F4000            ; wiping
G1 X55 Y172 F4000            ; wiping
G1 X60 Y174 F4000            ; wiping
G1 X80 Y172 F4000            ; wiping
G1 X60 Y174 F4000            ; wiping
G1 X80 Y172 F4000            ; wiping
G1 X60 Y174 F4000            ; wiping
G1 X90 Y172 F4000            ; wiping
G1 X80 Y174 F4000            ; wiping
G1 X100 Y172 F4000           ; wiping
G1 X80 Y174 F4000            ; wiping
G1 X100 Y172 F4000           ; wiping
G1 X80 Y174 F4000            ; wiping
G1 X100 Y172 F4000           ; wiping
G1 X110 Y174 F4000           ; wiping
G1 X100 Y172 F4000           ; wiping
G1 X110 Y174 F4000           ; wiping
G1 X100 Y172 F4000           ; wiping
G1 X110 Y174 F4000           ; wiping
G1 X115 Y172 Z-0.5 F1000     ; wipe slower and bury noz in cleanish area
G1 Z10                       ; raise z
G28 X0 Y0                    ; home x and y
M109 S140                    ; set to probing temp
M204 S300                    ; Set probing acceleration
G29                          ; Probe
M204 S2000                   ; Restore standard acceleration
G1 X5 Y15 Z10 F5000          ; get out the way
G4 S1                        ; pause
M400                         ; clear buffer
M109 S205    ; set extruder temp and wait
G4 S15                       ; wait for bed to temp up
G1 Z2 E0 F75                 ; extrude filament back into nozzle
M140 S60; get bed temping up during first layer

;Layer count: 8
;LAYER:0
M107
G0 F10500 X68.345 Y87.249 Z0.425
;TYPE:SKIRT
G1 F900 X68.345 Y109.673 E0.93369
G1 X68.999 Y109.978 E0.96374
G1 X69.808 Y110.108 E0.99785
G1 X70.571 Y109.986 E1.03003
G1 X71.458 Y109.546 E1.07125
G1 X72.453 Y108.675 E1.12631
G1 X73.416 Y107.383 E1.19341
G1 X73.461 Y107.324 E1.19650
G1 X74.360 Y105.531 E1.28002
G1 X75.060 Y103.387 E1.37393
G1 X75.505 Y100.982 E1.47576
G1 X75.641 Y98.719 E1.57016
G1 X75.657 Y98.458 E1.58105
G1 X75.505 Y95.939 E1.68613
G1 X75.060 Y93.534 E1.78796
G1 X74.360 Y91.390 E1.88187
G1 X73.509 Y89.694 E1.96088
G1 X73.461 Y89.599 E1.96532
G1 X72.453 Y88.246 E2.03557
G1 X71.455 Y87.374 E2.09075
G1 X70.574 Y86.936 E2.13172
G1 X69.806 Y86.813 E2.16410
G1 X69.000 Y86.943 E2.19810
G1 X68.345 Y87.249 E2.22820
G0 F10500 X68.345 Y50.149
G1 F900 X88.697 Y50.149 E3.07561
G1 X88.697 Y52.153 E3.15906
G1 X107.971 Y52.153 E3.96159
G1 X108.469 Y50.149 E4.04757
G1 X126.285 Y50.149 E4.78939
G1 X126.285 Y146.773 E8.81261
G1 X108.460 Y146.773 E9.55481
G1 X107.970 Y144.769 E9.64071
G1 X88.697 Y144.769 E10.44320
G1 X88.697 Y146.773 E10.52664
G1 X79.390 Y146.773 E10.91416
G1 X78.760 Y148.365 E10.98545
G1 X77.809 Y150.773 E11.09325
G1 X67.305 Y150.773 E11.53062
G1 X65.623 Y146.523 E11.72094
G1 X50.520 Y146.523 E12.34979
G1 X50.030 Y144.519 E12.43569
G1 X30.757 Y144.519 E13.23818
G1 X30.757 Y146.523 E13.32162
G1 X21.448 Y146.523 E13.70923
G1 X20.818 Y148.116 E13.78056
G1 X20.817 Y148.116 E13.78060
G1 X19.867 Y150.523 E13.88835
G1 X9.362 Y150.523 E14.32575
G1 X7.076 Y144.742 E14.58460
G1 X6.720 Y143.841 E14.62494
G1 X6.720 Y107.704 E16.12961
G1 X11.058 Y109.728 E16.32893
G1 X11.867 Y109.858 E16.36304
G1 X12.630 Y109.736 E16.39522
G1 X13.517 Y109.296 E16.43644
G1 X14.512 Y108.425 E16.49151
G1 X15.475 Y107.133 E16.55860
G1 X15.520 Y107.074 E16.56169
G1 X16.419 Y105.281 E16.64521
G1 X17.119 Y103.137 E16.73912
G1 X17.564 Y100.732 E16.84096
G1 X17.700 Y98.469 E16.93535
G1 X17.716 Y98.208 E16.94624
G1 X17.564 Y95.689 E17.05132
G1 X17.119 Y93.284 E17.15316
G1 X16.419 Y91.140 E17.24706
G1 X15.568 Y89.444 E17.32607
G1 X15.520 Y89.349 E17.33051
G1 X14.512 Y87.996 E17.40076
G1 X13.514 Y87.124 E17.45594
G1 X12.633 Y86.686 E17.49691
G1 X11.865 Y86.563 E17.52929
G1 X11.059 Y86.693 E17.56329
G1 X6.720 Y88.717 E17.76264
G1 X6.720 Y49.899 E19.37894
G1 X30.757 Y49.899 E20.37980
G1 X30.757 Y51.903 E20.46324
G1 X50.031 Y51.903 E21.26577
G1 X50.529 Y49.899 E21.35175
G1 X68.345 Y49.899 E22.09357
G1 X68.345 Y50.149 E22.10398
G1 F600 E20.60398
G1 Z0.525
G0 F10500 X64.096 Y54.148
;TYPE:WALL-INNER
G1 Z0.425
G1 F600 E22.10398
G1 F900 X64.096 Y142.274 E25.77337
G1 X53.855 Y142.274 E26.19978
G1 X53.726 Y141.754 E26.22209
G1 X52.996 Y140.960 E26.26700
G1 X52.715 Y140.655 E26.28427
G1 X51.420 Y140.270 E26.34052
G1 X26.508 Y140.270 E27.37780
G1 X26.508 Y142.274 E27.46125
G1 X23.604 Y142.274 E27.58216
G1 X23.475 Y141.754 E27.60447
G1 X22.745 Y140.960 E27.64938
G1 X22.463 Y140.654 E27.66671
G1 X21.032 Y140.236 E27.72878
G1 X19.602 Y140.654 E27.79081
G1 X18.859 Y141.462 E27.83652
G1 X18.589 Y141.755 E27.85311
G1 X18.327 Y142.828 E27.89910
G1 X16.977 Y146.274 E28.05320
G1 X12.251 Y146.274 E28.24998
G1 X10.969 Y143.033 E28.39511
G1 X10.969 Y142.689 E28.40943
G1 X12.337 Y146.148 E28.56431
G1 X16.892 Y146.148 E28.75397
G1 X18.424 Y142.274 E28.92743
G1 X10.969 Y142.274 E29.23784
G1 X10.969 Y114.018 E30.41436
G1 X11.865 Y114.162 E30.45215
G1 X13.523 Y113.896 E30.52207
G1 X13.944 Y113.827 E30.53983
G1 X15.899 Y112.856 E30.63072
G1 X17.651 Y111.325 E30.72760
G1 X19.150 Y109.313 E30.83207
G1 X20.359 Y106.903 E30.94434
G1 X21.247 Y104.183 E31.06347
G1 X21.790 Y101.251 E31.18763
G1 X21.973 Y98.210 E31.31448
G1 X21.790 Y95.170 E31.44129
G1 X21.247 Y92.238 E31.56545
G1 X20.359 Y89.518 E31.68459
G1 X19.150 Y87.108 E31.79685
G1 X17.651 Y85.096 E31.90132
G1 X15.899 Y83.565 E31.99820
G1 X13.943 Y82.594 E32.08913
G1 X11.866 Y82.259 E32.17673
G1 X10.969 Y82.404 E32.21456
G1 X10.969 Y54.148 E33.39109
G1 X18.461 Y54.148 E33.70304
G1 X18.590 Y54.668 E33.72535
G1 X19.320 Y55.462 E33.77026
G1 X19.602 Y55.768 E33.78758
G1 X21.032 Y56.186 E33.84962
G1 X22.463 Y55.768 E33.91169
G1 X23.206 Y54.960 E33.95740
G1 X23.475 Y54.668 E33.97393
G1 X23.603 Y54.148 E33.99622
G1 X26.508 Y54.148 E34.11718
G1 X26.508 Y56.152 E34.20062
G1 X51.421 Y56.152 E35.23795
G1 X52.319 Y55.884 E35.27697
G1 X52.714 Y55.768 E35.29411
G1 X53.457 Y54.960 E35.33982
G1 X53.727 Y54.667 E35.35641
G1 X53.854 Y54.148 E35.37866
G1 X64.096 Y54.148 E35.80511
G0 F10500 X64.721 Y53.523
;TYPE:WALL-OUTER
G1 F900 X64.721 Y142.899 E39.52655
G1 X53.364 Y142.899 E39.99943
G1 X53.216 Y142.294 E40.02536
G1 X53.158 Y142.060 E40.03540
G1 X52.372 Y141.206 E40.08373
G1 X51.329 Y140.895 E40.12904
G1 X27.133 Y140.895 E41.13652
G1 X27.133 Y142.899 E41.21996
G1 X23.113 Y142.899 E41.38734
G1 X22.907 Y142.060 E41.42332
G1 X22.121 Y141.205 E41.47167
G1 X21.032 Y140.887 E41.51891
G1 X19.944 Y141.205 E41.56611
G1 X19.158 Y142.060 E41.61447
G1 X18.933 Y142.979 E41.65386
G1 X18.899 Y143.117 E41.65978
G1 X17.402 Y146.899 E41.82914
G1 X11.826 Y146.899 E42.06131
G1 X10.344 Y143.152 E42.22909
G1 X10.344 Y113.284 E43.47273
G1 X11.865 Y113.529 E43.53688
G1 X13.750 Y113.226 E43.61638
G1 X15.549 Y112.332 E43.70002
G1 X17.189 Y110.898 E43.79073
G1 X18.616 Y108.983 E43.89017
G1 X19.779 Y106.664 E43.99819
G1 X20.640 Y104.028 E44.11366
G1 X21.168 Y101.175 E44.23447
G1 X21.347 Y98.210 E44.35815
G1 X21.168 Y95.246 E44.48179
G1 X20.640 Y92.393 E44.60260
G1 X19.779 Y89.757 E44.71806
G1 X18.616 Y87.438 E44.82608
G1 X17.189 Y85.523 E44.92552
G1 X15.549 Y84.089 E45.01623
G1 X13.750 Y83.195 E45.09988
G1 X11.866 Y82.892 E45.17933
G1 X10.344 Y83.137 E45.24352
G1 X10.344 Y53.523 E46.47659
G1 X18.952 Y53.523 E46.83501
G1 X19.100 Y54.128 E46.86094
G1 X19.158 Y54.362 E46.87098
G1 X19.944 Y55.217 E46.91934
G1 X21.032 Y55.535 E46.96654
G1 X22.121 Y55.217 E47.01377
G1 X22.907 Y54.362 E47.06213
G1 X23.113 Y53.523 E47.09810
G1 X27.133 Y53.523 E47.26549
G1 X27.133 Y55.527 E47.34893
G1 X51.330 Y55.527 E48.35644
G1 X52.144 Y55.284 E48.39181
G1 X52.372 Y55.217 E48.40171
G1 X53.158 Y54.362 E48.45007
G1 X53.363 Y53.523 E48.48603
G1 X64.721 Y53.523 E48.95895
G0 F10500 X64.308 Y53.846
G0 X17.889 Y143.049
G0 X17.505 Y142.899
G1 F900 X11.724 Y142.899 E49.19966
G1 X12.762 Y145.523 E49.31716
G1 X16.467 Y145.523 E49.47143
G1 X17.505 Y142.899 E49.58892
G0 F10500 X17.867 Y142.054
;TYPE:SKIN
G1 F900 X11.187 Y135.374 E49.98227
G0 F10500 X11.187 Y136.258
G1 F900 X16.983 Y142.054 E50.32357
G0 F10500 X16.100 Y142.054
G1 F900 X11.187 Y137.141 E50.61287
G0 F10500 X11.187 Y138.025
G1 F900 X15.216 Y142.054 E50.85012
G0 F10500 X14.332 Y142.054
G1 F900 X11.187 Y138.909 E51.03531
G0 F10500 X11.187 Y139.793
G1 F900 X13.448 Y142.054 E51.16845
G0 F10500 X12.564 Y142.054
G1 F900 X11.187 Y140.677 E51.24954
G0 F10500 X11.187 Y141.561
G1 F900 X11.680 Y142.054 E51.27857
G0 F10500 X18.380 Y141.682
G1 F900 X11.187 Y134.490 E51.70210
G0 F10500 X11.187 Y133.606
G1 F900 X18.792 Y141.210 E52.14989
G0 F10500 X19.215 Y140.750
G1 F900 X11.187 Y132.722 E52.62262
G0 F10500 X11.187 Y131.838
G1 F900 X19.735 Y140.386 E53.12596
G0 F10500 X20.419 Y140.186
G1 F900 X11.187 Y130.954 E53.66959
G0 F10500 X11.187 Y130.070
G1 F900 X21.161 Y140.044 E54.25691
G0 F10500 X22.410 Y140.409
G1 F900 X11.187 Y129.186 E54.91777
G0 F10500 X11.187 Y128.303
G1 F900 X24.938 Y142.054 E55.72750
G0 F10500 X24.055 Y142.054
G1 F900 X23.683 Y141.682 E55.74941
G0 F10500 X25.822 Y142.054
G1 F900 X11.187 Y127.419 E56.61119
G0 F10500 X11.187 Y126.535
G1 F900 X26.289 Y141.637 E57.50047
G0 F10500 X26.289 Y140.753
G1 F900 X11.187 Y125.651 E58.38975
G0 F10500 X11.187 Y124.767
G1 F900 X26.470 Y140.050 E59.28969
G0 F10500 X27.354 Y140.050
G1 F900 X11.187 Y123.883 E60.24168
G0 F10500 X11.187 Y122.999
G1 F900 X28.238 Y140.050 E61.24573
G0 F10500 X29.122 Y140.050
G1 F900 X11.187 Y122.115 E62.30183
G0 F10500 X11.187 Y121.232
G1 F900 X30.006 Y140.050 E63.40996
G0 F10500 X30.889 Y140.050
G1 F900 X11.187 Y120.348 E64.57011
G0 F10500 X11.187 Y119.464
G1 F900 X31.773 Y140.050 E65.78231
G0 F10500 X32.657 Y140.050
G1 F900 X11.187 Y118.580 E67.04657
G0 F10500 X11.187 Y117.696
G1 F900 X33.541 Y140.050 E68.36289
G0 F10500 X34.425 Y140.050
G1 F900 X11.187 Y116.812 E69.73126
G0 F10500 X11.187 Y115.928
G1 F900 X35.309 Y140.050 E71.15168
G0 F10500 X36.193 Y140.050
G1 F900 X11.187 Y115.044 E72.62416
G0 F10500 X11.322 Y114.296
G1 F900 X37.077 Y140.050 E74.14071
G0 F10500 X37.961 Y140.050
G1 F900 X12.234 Y114.323 E75.65564
G0 F10500 X12.995 Y114.200
G1 F900 X38.844 Y140.050 E77.17779
G0 F10500 X39.728 Y140.050
G1 F900 X13.756 Y114.077 E78.70718
G0 F10500 X14.404 Y113.842
G1 F900 X40.612 Y140.050 E80.25044
G0 F10500 X41.496 Y140.050
G1 F900 X14.994 Y113.548 E81.81100
G0 F10500 X15.586 Y113.255
G1 F900 X42.380 Y140.050 E83.38880
G0 F10500 X43.264 Y140.050
G1 F900 X16.145 Y112.931 E84.98570
G0 F10500 X16.617 Y112.519
G1 F900 X44.148 Y140.050 E86.60686
G0 F10500 X45.032 Y140.050
G1 F900 X17.088 Y112.106 E88.25234
G0 F10500 X17.560 Y111.694
G1 F900 X45.915 Y140.050 E89.92205
G0 F10500 X46.799 Y140.050
G1 F900 X17.987 Y111.237 E91.61868
G0 F10500 X18.364 Y110.730
G1 F900 X47.683 Y140.050 E93.34515
G0 F10500 X48.567 Y140.050
G1 F900 X18.741 Y110.224 E95.10146
G0 F10500 X19.119 Y109.718
G1 F900 X49.451 Y140.050 E96.88756
G0 F10500 X50.335 Y140.050
G1 F900 X19.462 Y109.177 E98.70551
G0 F10500 X19.757 Y108.588
G1 F900 X51.219 Y140.050 E100.55815
G0 F10500 X52.378 Y140.325
G1 F900 X20.052 Y107.999 E102.46166
G0 F10500 X20.347 Y107.410
G1 F900 X54.990 Y142.054 E104.50164
G0 F10500 X54.107 Y142.054
G1 F900 X53.999 Y141.946 E104.50800
G0 F10500 X55.874 Y142.054
G1 F900 X20.622 Y106.801 E106.58385
G0 F10500 X20.839 Y106.135
G1 F900 X56.758 Y142.054 E108.69893
G0 F10500 X57.642 Y142.054
G1 F900 X21.056 Y105.468 E110.85330
G0 F10500 X21.274 Y104.802
G1 F900 X58.526 Y142.054 E113.04688
G0 F10500 X59.410 Y142.054
G1 F900 X21.480 Y104.124 E115.28039
G0 F10500 X21.618 Y103.378
G1 F900 X60.294 Y142.054 E117.55782
G0 F10500 X61.178 Y142.054
G1 F900 X21.756 Y102.633 E119.87916
G0 F10500 X21.894 Y101.887
G1 F900 X62.062 Y142.054 E122.24442
G0 F10500 X62.945 Y142.054
G1 F900 X22.016 Y101.124 E124.65455
G0 F10500 X22.066 Y100.291
G1 F900 X63.829 Y142.054 E127.11376
G0 F10500 X63.876 Y141.217
G1 F900 X22.116 Y99.457 E129.57280
G0 F10500 X22.167 Y98.623
G1 F900 X63.876 Y140.333 E132.02886
G0 F10500 X63.876 Y139.449
G1 F900 X22.163 Y97.736 E134.48513
G0 F10500 X22.106 Y96.795
G1 F900 X63.876 Y138.565 E136.94475
G0 F10500 X63.876 Y137.681
G1 F900 X22.050 Y95.855 E139.40767
G0 F10500 X21.959 Y94.880
G1 F900 X63.876 Y136.797 E141.87595
G0 F10500 X63.876 Y135.913
G1 F900 X21.758 Y93.795 E144.35607
G0 F10500 X21.557 Y92.710
G1 F900 X63.876 Y135.029 E146.84802
G0 F10500 X63.876 Y134.145
G1 F900 X21.239 Y91.508 E149.35870
G0 F10500 X20.810 Y90.196
G1 F900 X63.876 Y133.262 E151.89464
G0 F10500 X63.876 Y132.378
G1 F900 X20.188 Y88.690 E154.46721
G0 F10500 X19.227 Y86.845
G1 F900 X63.876 Y131.494 E157.09636
G0 F10500 X63.876 Y130.610
G1 F900 X11.187 Y77.921 E160.19895
G0 F10500 X11.187 Y78.805
G1 F900 X15.506 Y83.124 E160.45327
G0 F10500 X13.856 Y82.358
G1 F900 X11.187 Y79.689 E160.61044
G0 F10500 X11.187 Y77.037
G1 F900 X63.876 Y129.726 E163.71303
G0 F10500 X63.876 Y128.842
G1 F900 X11.187 Y76.153 E166.81562
G0 F10500 X11.187 Y75.270
G1 F900 X63.876 Y127.958 E169.91818
G0 F10500 X63.876 Y127.074
G1 F900 X11.187 Y74.386 E173.02074
G0 F10500 X11.187 Y73.502
G1 F900 X63.876 Y126.190 E176.12330
G0 F10500 X63.876 Y125.307
G1 F900 X11.187 Y72.618 E179.22589
G0 F10500 X11.187 Y71.734
G1 F900 X63.876 Y124.423 E182.32848
G0 F10500 X63.876 Y123.539
G1 F900 X11.187 Y70.850 E185.43107
G0 F10500 X11.187 Y69.966
G1 F900 X63.876 Y122.655 E188.53365
G0 F10500 X63.876 Y121.771
G1 F900 X11.187 Y69.082 E191.63624
G0 F10500 X11.187 Y68.199
G1 F900 X63.876 Y120.887 E194.73880
G0 F10500 X63.876 Y120.003
G1 F900 X11.187 Y67.315 E197.84136
G0 F10500 X11.187 Y66.431
G1 F900 X63.876 Y119.119 E200.94392
G0 F10500 X63.876 Y118.236
G1 F900 X11.187 Y65.547 E204.04651
G0 F10500 X11.187 Y64.663
G1 F900 X63.876 Y117.352 E207.14910
G0 F10500 X63.876 Y116.468
G1 F900 X11.187 Y63.779 E210.25169
G0 F10500 X11.187 Y62.895
G1 F900 X63.876 Y115.584 E213.35428
G0 F10500 X63.876 Y114.700
G1 F900 X11.187 Y62.011 E216.45687
G0 F10500 X11.187 Y61.127
G1 F900 X63.876 Y113.816 E219.55946
G0 F10500 X63.876 Y112.932
G1 F900 X11.187 Y60.244 E222.66202
G0 F10500 X11.187 Y59.360
G1 F900 X63.876 Y112.048 E225.76458
G0 F10500 X63.876 Y111.164
G1 F900 X11.187 Y58.476 E228.86714
G0 F10500 X11.187 Y57.592
G1 F900 X63.876 Y110.281 E231.96973
G0 F10500 X63.876 Y109.397
G1 F900 X11.187 Y56.708 E235.07232
G0 F10500 X11.187 Y55.824
G1 F900 X63.876 Y108.513 E238.17491
G0 F10500 X63.876 Y107.629
G1 F900 X11.187 Y54.940 E241.27750
G0 F10500 X11.497 Y54.366
G1 F900 X63.876 Y106.745 E244.36183
G0 F10500 X63.876 Y105.861
G1 F900 X12.381 Y54.366 E247.39411
G0 F10500 X13.265 Y54.366
G1 F900 X63.876 Y104.977 E250.37434
G0 F10500 X63.876 Y104.093
G1 F900 X14.149 Y54.366 E253.30251
G0 F10500 X15.033 Y54.366
G1 F900 X63.876 Y103.210 E256.17866
G0 F10500 X63.876 Y102.326
G1 F900 X15.916 Y54.366 E259.00278
G0 F10500 X16.800 Y54.366
G1 F900 X63.876 Y101.442 E261.77485
G0 F10500 X63.876 Y100.558
G1 F900 X17.684 Y54.366 E264.49486
G0 F10500 X20.443 Y56.241
G1 F900 X63.876 Y99.674 E267.05241
G0 F10500 X63.876 Y98.790
G1 F900 X21.393 Y56.307 E269.55402
G0 F10500 X22.077 Y56.107
G1 F900 X63.876 Y97.906 E272.01536
G0 F10500 X63.876 Y97.022
G1 F900 X22.693 Y55.839 E274.44041
G0 F10500 X23.116 Y55.379
G1 F900 X63.876 Y96.138 E276.84054
G0 F10500 X63.876 Y95.255
G1 F900 X23.540 Y54.919 E279.21572
G0 F10500 X23.871 Y54.366
G1 F900 X63.876 Y94.371 E281.57141
G0 F10500 X63.876 Y93.487
G1 F900 X26.759 Y56.370 E283.75704
G0 F10500 X26.288 Y55.899
G1 F900 X24.755 Y54.366 E283.84732
G0 F10500 X25.639 Y54.366
G1 F900 X26.288 Y55.015 E283.88553
G0 F10500 X26.679 Y55.981
G0 X27.643 Y56.370
G1 F900 X63.876 Y92.603 E286.01911
G0 F10500 X63.876 Y91.719
G1 F900 X28.527 Y56.370 E288.10063
G0 F10500 X29.411 Y56.370
G1 F900 X63.876 Y90.835 E290.13010
G0 F10500 X63.876 Y89.951
G1 F900 X30.295 Y56.370 E292.10752
G0 F10500 X31.179 Y56.370
G1 F900 X63.876 Y89.067 E294.03288
G0 F10500 X63.876 Y88.183
G1 F900 X32.063 Y56.370 E295.90619
G0 F10500 X32.946 Y56.370
G1 F900 X63.876 Y87.300 E297.72750
G0 F10500 X63.876 Y86.416
G1 F900 X33.830 Y56.370 E299.49676
G0 F10500 X34.714 Y56.370
G1 F900 X63.876 Y85.532 E301.21396
G0 F10500 X63.876 Y84.648
G1 F900 X35.598 Y56.370 E302.87911
G0 F10500 X36.482 Y56.370
G1 F900 X63.876 Y83.764 E304.49220
G0 F10500 X63.876 Y82.880
G1 F900 X37.366 Y56.370 E306.05324
G0 F10500 X38.250 Y56.370
G1 F900 X63.876 Y81.996 E307.56223
G0 F10500 X63.876 Y81.112
G1 F900 X39.134 Y56.370 E309.01916
G0 F10500 X40.018 Y56.370
G1 F900 X63.876 Y80.229 E310.42407
G0 F10500 X63.876 Y79.345
G1 F900 X40.901 Y56.370 E311.77695
G0 F10500 X41.785 Y56.370
G1 F900 X63.876 Y78.461 E313.07778
G0 F10500 X63.876 Y77.577
G1 F900 X42.669 Y56.370 E314.32655
G0 F10500 X43.553 Y56.370
G1 F900 X63.876 Y76.693 E315.52327
G0 F10500 X63.876 Y75.809
G1 F900 X44.437 Y56.370 E316.66793
G0 F10500 X45.321 Y56.370
G1 F900 X63.876 Y74.925 E317.76054
G0 F10500 X63.876 Y74.041
G1 F900 X46.205 Y56.370 E318.80110
G0 F10500 X47.089 Y56.370
G1 F900 X63.876 Y73.157 E319.78960
G0 F10500 X63.876 Y72.274
G1 F900 X47.972 Y56.370 E320.72611
G0 F10500 X48.856 Y56.370
G1 F900 X63.876 Y71.390 E321.61056
G0 F10500 X63.876 Y70.506
G1 F900 X49.740 Y56.370 E322.44296
G0 F10500 X50.624 Y56.370
G1 F900 X63.876 Y69.622 E323.22330
G0 F10500 X63.876 Y68.738
G1 F900 X51.496 Y56.358 E323.95230
G0 F10500 X52.177 Y56.155
G1 F900 X63.876 Y67.854 E324.64119
G0 F10500 X63.876 Y66.970
G1 F900 X52.849 Y55.943 E325.29052
G0 F10500 X53.272 Y55.483
G1 F900 X63.876 Y66.086 E325.91490
G0 F10500 X63.876 Y65.203
G1 F900 X53.696 Y55.022 E326.51438
G0 F10500 X54.005 Y54.447
G1 F900 X63.876 Y64.319 E327.09566
G0 F10500 X63.876 Y63.435
G1 F900 X54.808 Y54.367 E327.62963
G0 F10500 X55.692 Y54.367
G1 F900 X63.876 Y62.551 E328.11155
G0 F10500 X63.876 Y61.667
G1 F900 X56.576 Y54.367 E328.54141
G0 F10500 X57.460 Y54.367
G1 F900 X63.876 Y60.783 E328.91921
G0 F10500 X63.876 Y59.899
G1 F900 X58.344 Y54.367 E329.24497
G0 F10500 X59.227 Y54.367
G1 F900 X63.876 Y59.015 E329.51869
G0 F10500 X63.876 Y58.131
G1 F900 X60.111 Y54.367 E329.74036
G0 F10500 X60.995 Y54.367
G1 F900 X63.876 Y57.248 E329.91001
G0 F10500 X63.876 Y56.364
G1 F900 X61.879 Y54.367 E330.02761
G0 F10500 X62.763 Y54.367
G1 F900 X63.876 Y55.480 E330.09314
G0 F10500 X63.876 Y54.596
G1 F900 X63.647 Y54.367 E330.10663
G0 F10500 X12.802 Y82.187
G1 F900 X11.187 Y80.573 E330.20170
G0 F10500 X11.187 Y81.457
G1 F900 X11.780 Y82.049 E330.23659
G1 F600 E328.73659
G1 Z0.525
G0 F10500 X68.910 Y82.654
;TYPE:WALL-INNER
G1 Z0.425
G1 F600 E330.23659
G1 F900 X68.910 Y54.398 E331.41311
G1 X76.402 Y54.398 E331.72506
G1 X76.531 Y54.918 E331.74737
G1 X77.261 Y55.712 E331.79228
G1 X77.543 Y56.018 E331.80961
G1 X78.973 Y56.436 E331.87164
G1 X80.405 Y56.018 E331.93375
G1 X81.146 Y55.210 E331.97940
G1 X81.415 Y54.918 E331.99593
G1 X81.543 Y54.398 E332.01823
G1 X84.448 Y54.398 E332.13919
G1 X84.448 Y56.402 E332.22263
G1 X109.360 Y56.402 E333.25992
G1 X110.656 Y56.016 E333.31622
G1 X111.397 Y55.210 E333.36181
G1 X111.667 Y54.917 E333.37840
G1 X111.794 Y54.398 E333.40065
G1 X122.036 Y54.398 E333.82710
G1 X122.036 Y142.524 E337.49649
G1 X111.795 Y142.524 E337.92290
G1 X111.666 Y142.004 E337.94521
G1 X110.936 Y141.210 E337.99012
G1 X110.655 Y140.905 E338.00739
G1 X109.360 Y140.520 E338.06364
G1 X84.448 Y140.520 E339.10093
G1 X84.448 Y142.524 E339.18437
G1 X81.544 Y142.524 E339.30529
G1 X81.415 Y142.004 E339.32760
G1 X80.687 Y141.211 E339.37242
G1 X80.404 Y140.904 E339.38980
G1 X78.973 Y140.486 E339.45188
G1 X77.543 Y140.904 E339.51391
G1 X76.800 Y141.712 E339.55962
G1 X76.530 Y142.005 E339.57621
G1 X76.268 Y143.078 E339.62220
G1 X74.919 Y146.524 E339.77628
G1 X70.193 Y146.524 E339.97306
G1 X68.910 Y143.283 E340.11820
G1 X68.910 Y142.939 E340.13253
G1 X70.278 Y146.398 E340.28741
G1 X74.833 Y146.398 E340.47707
G1 X76.365 Y142.524 E340.65053
G1 X68.910 Y142.524 E340.96094
G1 X68.910 Y114.268 E342.13746
G1 X69.806 Y114.412 E342.17525
G1 X71.464 Y114.146 E342.24517
G1 X71.885 Y114.077 E342.26293
G1 X73.840 Y113.106 E342.35382
G1 X75.592 Y111.575 E342.45070
G1 X77.091 Y109.563 E342.55517
G1 X78.300 Y107.153 E342.66743
G1 X79.188 Y104.433 E342.78657
G1 X79.731 Y101.501 E342.91073
G1 X79.914 Y98.460 E343.03758
G1 X79.731 Y95.420 E343.16439
G1 X79.188 Y92.488 E343.28855
G1 X78.300 Y89.768 E343.40768
G1 X77.091 Y87.358 E343.51995
G1 X75.592 Y85.346 E343.62442
G1 X73.840 Y83.815 E343.72130
G1 X71.884 Y82.844 E343.81223
G1 X69.807 Y82.509 E343.89983
G1 X68.910 Y82.654 E343.93766
G0 F10500 X69.807 Y83.142
;TYPE:WALL-OUTER
G1 F900 X68.285 Y83.387 E344.00185
G1 X68.285 Y53.773 E345.23492
G1 X76.893 Y53.773 E345.59333
G1 X77.041 Y54.378 E345.61927
G1 X77.099 Y54.612 E345.62931
G1 X77.885 Y55.467 E345.67766
G1 X78.973 Y55.785 E345.72486
G1 X80.062 Y55.467 E345.77210
G1 X80.847 Y54.612 E345.82043
G1 X81.053 Y53.773 E345.85640
G1 X85.073 Y53.773 E346.02379
G1 X85.073 Y55.777 E346.10723
G1 X109.269 Y55.777 E347.11470
G1 X110.312 Y55.466 E347.16002
G1 X111.098 Y54.612 E347.20834
G1 X111.303 Y53.773 E347.24431
G1 X122.661 Y53.773 E347.71723
G1 X122.661 Y143.149 E351.43866
G1 X111.304 Y143.149 E351.91155
G1 X111.156 Y142.544 E351.93748
G1 X111.098 Y142.310 E351.94752
G1 X110.312 Y141.456 E351.99585
G1 X109.269 Y141.145 E352.04116
G1 X85.073 Y141.145 E353.04864
G1 X85.073 Y143.149 E353.13208
G1 X81.053 Y143.149 E353.29946
G1 X80.847 Y142.310 E353.33543
G1 X80.062 Y141.455 E353.38376
G1 X78.973 Y141.137 E353.43100
G1 X77.885 Y141.455 E353.47820
G1 X77.099 Y142.310 E353.52656
G1 X76.874 Y143.229 E353.56595
G1 X76.840 Y143.367 E353.57187
G1 X75.344 Y147.149 E353.74122
G1 X69.768 Y147.149 E353.97339
G1 X68.285 Y143.402 E354.14118
G1 X68.285 Y113.534 E355.38482
G1 X69.806 Y113.779 E355.44897
G1 X71.691 Y113.476 E355.52847
G1 X73.490 Y112.582 E355.61211
G1 X75.130 Y111.148 E355.70282
G1 X76.557 Y109.233 E355.80226
G1 X77.720 Y106.914 E355.91028
G1 X78.581 Y104.278 E356.02575
G1 X79.109 Y101.425 E356.14656
G1 X79.288 Y98.460 E356.27024
G1 X79.109 Y95.496 E356.39388
G1 X78.581 Y92.643 E356.51469
G1 X77.720 Y90.007 E356.63015
G1 X76.557 Y87.688 E356.73817
G1 X75.130 Y85.773 E356.83761
G1 X73.490 Y84.339 E356.92832
G1 X71.691 Y83.445 E357.01197
G1 X69.807 Y83.142 E357.09142
G0 F10500 X69.872 Y82.735
G0 X71.849 Y82.954
G0 X73.776 Y83.910
G0 X75.507 Y85.424
G0 X76.994 Y87.418
G0 X78.196 Y89.812
G0 X79.619 Y95.434
G0 X79.619 Y101.487
G0 X78.196 Y107.109
G0 X76.994 Y109.503
G0 X75.507 Y111.497
G0 X73.776 Y113.011
G0 X71.445 Y114.035
G0 X69.040 Y142.724
G0 X69.281 Y143.299
G0 X69.665 Y143.149
G1 F900 X70.703 Y145.773 E357.20892
G1 X74.408 Y145.773 E357.36319
G1 X75.446 Y143.149 E357.48068
G1 X69.665 Y143.149 E357.72139
G0 F10500 X69.383 Y142.304
;TYPE:SKIN
G1 F900 X69.128 Y142.049 E357.73641
G0 F10500 X69.128 Y141.166
G1 F900 X70.267 Y142.304 E357.80345
G0 F10500 X71.151 Y142.304
G1 F900 X69.128 Y140.282 E357.92254
G0 F10500 X69.128 Y139.398
G1 F900 X72.035 Y142.304 E358.09369
G0 F10500 X72.918 Y142.304
G1 F900 X69.128 Y138.514 E358.31687
G0 F10500 X69.128 Y137.630
G1 F900 X73.802 Y142.304 E358.59210
G0 F10500 X74.686 Y142.304
G1 F900 X69.128 Y136.746 E358.91938
G0 F10500 X69.128 Y135.862
G1 F900 X75.570 Y142.304 E359.29872
G0 F10500 X76.274 Y142.124
G1 F900 X69.128 Y134.978 E359.71951
G0 F10500 X69.128 Y134.095
G1 F900 X76.618 Y141.584 E360.16053
G0 F10500 X77.042 Y141.125
G1 F900 X69.128 Y133.211 E360.62654
G0 F10500 X69.128 Y132.327
G1 F900 X77.491 Y140.690 E361.11900
G0 F10500 X78.175 Y140.490
G1 F900 X69.128 Y131.443 E361.65173
G0 F10500 X69.128 Y130.559
G1 F900 X78.859 Y140.289 E362.22471
G0 F10500 X80.014 Y140.560
G1 F900 X69.128 Y129.675 E362.86570
G0 F10500 X69.128 Y128.791
G1 F900 X82.640 Y142.303 E363.66135
G0 F10500 X83.524 Y142.303
G1 F900 X69.128 Y127.907 E364.50906
G0 F10500 X69.128 Y127.023
G1 F900 X84.229 Y142.124 E365.39828
G0 F10500 X84.229 Y141.240
G1 F900 X69.128 Y126.140 E366.28748
G0 F10500 X69.128 Y125.256
G1 F900 X84.229 Y140.356 E367.17667
G0 F10500 X85.056 Y140.299
G1 F900 X69.128 Y124.372 E368.11456
G0 F10500 X69.128 Y123.488
G1 F900 X85.940 Y140.299 E369.10450
G0 F10500 X86.824 Y140.299
G1 F900 X69.128 Y122.604 E370.14650
G0 F10500 X69.128 Y121.720
G1 F900 X87.708 Y140.299 E371.24055
G0 F10500 X88.591 Y140.299
G1 F900 X69.128 Y120.836 E372.38663
G0 F10500 X69.128 Y119.952
G1 F900 X89.475 Y140.299 E373.58476
G0 F10500 X90.359 Y140.299
G1 F900 X69.128 Y119.069 E374.83492
G0 F10500 X69.128 Y118.185
G1 F900 X91.243 Y140.299 E376.13713
G0 F10500 X92.127 Y140.299
G1 F900 X69.128 Y117.301 E377.49140
G0 F10500 X69.128 Y116.417
G1 F900 X93.011 Y140.299 E378.89772
G0 F10500 X93.895 Y140.299
G1 F900 X69.128 Y115.533 E380.35609
G0 F10500 X69.128 Y114.649
G1 F900 X94.779 Y140.299 E381.86652
G0 F10500 X95.663 Y140.299
G1 F900 X69.970 Y114.607 E383.37942
G0 F10500 X70.731 Y114.484
G1 F900 X96.546 Y140.299 E384.89954
G0 F10500 X97.430 Y140.299
G1 F900 X71.492 Y114.361 E386.42690
G0 F10500 X72.186 Y114.171
G1 F900 X98.314 Y140.299 E387.96544
G0 F10500 X99.198 Y140.299
G1 F900 X72.776 Y113.878 E389.52127
G0 F10500 X73.367 Y113.585
G1 F900 X100.082 Y140.299 E391.09435
G0 F10500 X100.966 Y140.299
G1 F900 X73.958 Y113.291 E392.68472
G0 F10500 X74.430 Y112.880
G1 F900 X101.850 Y140.299 E394.29931
G0 F10500 X102.734 Y140.299
G1 F900 X74.902 Y112.468 E395.93817
G0 F10500 X75.374 Y112.055
G1 F900 X103.618 Y140.299 E397.60132
G0 F10500 X104.501 Y140.299
G1 F900 X75.825 Y111.623 E399.28990
G0 F10500 X76.203 Y111.117
G1 F900 X105.385 Y140.299 E401.00828
G0 F10500 X106.269 Y140.299
G1 F900 X76.581 Y110.611 E402.75646
G0 F10500 X76.958 Y110.105
G1 F900 X107.153 Y140.299 E404.53446
G0 F10500 X108.037 Y140.299
G1 F900 X77.324 Y109.586 E406.34299
G0 F10500 X77.619 Y108.997
G1 F900 X108.921 Y140.299 E408.18621
G0 F10500 X109.979 Y140.474
G1 F900 X77.913 Y108.408 E410.07442
G0 F10500 X78.209 Y107.820
G1 F900 X112.693 Y142.303 E412.10498
G0 F10500 X113.576 Y142.303
G1 F900 X78.503 Y107.230 E414.17025
G0 F10500 X78.721 Y106.564
G1 F900 X114.460 Y142.303 E416.27474
G0 F10500 X115.344 Y142.303
G1 F900 X78.939 Y105.898 E418.41844
G0 F10500 X79.157 Y105.232
G1 F900 X116.228 Y142.303 E420.60137
G0 F10500 X117.112 Y142.303
G1 F900 X79.374 Y104.566 E422.82354
G0 F10500 X79.521 Y103.829
G1 F900 X117.996 Y142.303 E425.08911
G0 F10500 X118.880 Y142.303
G1 F900 X79.660 Y103.084 E427.39855
G0 F10500 X79.798 Y102.338
G1 F900 X119.764 Y142.303 E429.75191
G0 F10500 X120.647 Y142.303
G1 F900 X79.937 Y101.592 E432.14915
G0 F10500 X79.994 Y100.766
G1 F900 X121.531 Y142.303 E434.59505
G0 F10500 X121.816 Y141.704
G1 F900 X80.044 Y99.932 E437.05480
G0 F10500 X80.095 Y99.099
G1 F900 X121.816 Y140.821 E439.51156
G0 F10500 X121.816 Y139.937
G1 F900 X80.120 Y98.241 E441.96683
G0 F10500 X80.063 Y97.300
G1 F900 X121.816 Y139.053 E444.42546
G0 F10500 X121.816 Y138.169
G1 F900 X80.007 Y96.359 E446.88741
G0 F10500 X79.949 Y95.418
G1 F900 X121.816 Y137.285 E449.35274
G0 F10500 X121.816 Y136.401
G1 F900 X79.753 Y94.338 E451.82962
G0 F10500 X79.553 Y93.253
G1 F900 X121.816 Y135.517 E454.31830
G0 F10500 X121.816 Y134.633
G1 F900 X79.296 Y92.113 E456.82209
G0 F10500 X78.867 Y90.800
G1 F900 X121.816 Y133.749 E459.35114
G0 F10500 X121.816 Y132.866
G1 F900 X78.369 Y89.418 E461.90955
G0 F10500 X77.479 Y87.645
G1 F900 X121.816 Y131.982 E464.52033
G0 F10500 X121.816 Y131.098
G1 F900 X69.128 Y78.410 E467.62286
G0 F10500 X69.128 Y79.294
G1 F900 X72.974 Y83.139 E467.84930
G0 F10500 X71.512 Y82.561
G1 F900 X69.128 Y80.178 E467.98965
G0 F10500 X69.128 Y81.062
G1 F900 X70.457 Y82.390 E468.06788
G0 F10500 X69.515 Y82.332
G1 F900 X69.128 Y81.945 E468.09067
G0 F10500 X69.128 Y77.526
G1 F900 X121.816 Y130.214 E471.19320
G0 F10500 X121.816 Y129.330
G1 F900 X69.128 Y76.642 E474.29573
G0 F10500 X69.128 Y75.758
G1 F900 X121.816 Y128.446 E477.39826
G0 F10500 X121.816 Y127.562
G1 F900 X69.128 Y74.874 E480.50079
G0 F10500 X69.128 Y73.990
G1 F900 X121.816 Y126.678 E483.60332
G0 F10500 X121.816 Y125.795
G1 F900 X69.128 Y73.107 E486.70585
G0 F10500 X69.128 Y72.223
G1 F900 X121.816 Y124.911 E489.80838
G0 F10500 X121.816 Y124.027
G1 F900 X69.128 Y71.339 E492.91091
G0 F10500 X69.128 Y70.455
G1 F900 X121.816 Y123.143 E496.01345
G0 F10500 X121.816 Y122.259
G1 F900 X69.128 Y69.571 E499.11598
G0 F10500 X69.128 Y68.687
G1 F900 X121.816 Y121.375 E502.21851
G0 F10500 X121.816 Y120.491
G1 F900 X69.128 Y67.803 E505.32104
G0 F10500 X69.128 Y66.919
G1 F900 X121.816 Y119.607 E508.42357
G0 F10500 X121.816 Y118.723
G1 F900 X69.128 Y66.035 E511.52610
G0 F10500 X69.128 Y65.151
G1 F900 X121.816 Y117.840 E514.62866
G0 F10500 X121.816 Y116.956
G1 F900 X69.128 Y64.267 E517.73122
G0 F10500 X69.128 Y63.383
G1 F900 X121.816 Y116.072 E520.83378
G0 F10500 X121.816 Y115.188
G1 F900 X69.128 Y62.499 E523.93634
G0 F10500 X69.128 Y61.615
G1 F900 X121.816 Y114.304 E527.03890
G0 F10500 X121.816 Y113.420
G1 F900 X69.128 Y60.731 E530.14146
G0 F10500 X69.128 Y59.848
G1 F900 X121.816 Y112.536 E533.24399
G0 F10500 X121.816 Y111.652
G1 F900 X69.128 Y58.964 E536.34652
G0 F10500 X69.128 Y58.080
G1 F900 X121.816 Y110.768 E539.44905
G0 F10500 X121.816 Y109.885
G1 F900 X69.128 Y57.196 E542.55161
G0 F10500 X69.128 Y56.312
G1 F900 X121.816 Y109.001 E545.65417
G0 F10500 X121.816 Y108.117
G1 F900 X69.128 Y55.428 E548.75673
G0 F10500 X69.200 Y54.616
G1 F900 X121.816 Y107.233 E551.85505
G0 F10500 X121.816 Y106.349
G1 F900 X70.084 Y54.616 E554.90131
G0 F10500 X70.968 Y54.616
G1 F900 X121.816 Y105.465 E557.89553
G0 F10500 X121.816 Y104.581
G1 F900 X71.851 Y54.616 E560.83771
G0 F10500 X72.735 Y54.616
G1 F900 X121.816 Y103.697 E563.72785
G0 F10500 X121.816 Y102.814
G1 F900 X73.619 Y54.616 E566.56595
G0 F10500 X74.503 Y54.616
G1 F900 X121.816 Y101.930 E569.35201
G0 F10500 X121.816 Y101.046
G1 F900 X75.387 Y54.616 E572.08601
G0 F10500 X78.048 Y56.393
G1 F900 X121.816 Y100.162 E574.66331
G0 F10500 X121.816 Y99.278
G1 F900 X79.150 Y56.612 E577.17570
G0 F10500 X79.835 Y56.412
G1 F900 X121.816 Y98.394 E579.64778
G0 F10500 X121.816 Y97.510
G1 F900 X80.518 Y56.212 E582.07961
G0 F10500 X80.943 Y55.753
G1 F900 X121.816 Y96.626 E584.48641
G0 F10500 X121.816 Y95.742
G1 F900 X81.366 Y55.292 E586.86831
G0 F10500 X81.686 Y54.728
G1 F900 X121.816 Y94.859 E589.23139
G0 F10500 X121.816 Y93.975
G1 F900 X84.462 Y56.620 E591.43101
G0 F10500 X84.227 Y56.386
G1 F900 X82.458 Y54.616 E591.53521
G0 F10500 X83.342 Y54.616
G1 F900 X84.227 Y55.502 E591.58735
G0 F10500 X84.619 Y56.231
G0 X85.346 Y56.620
G1 F900 X121.816 Y93.091 E593.73491
G0 F10500 X121.816 Y92.207
G1 F900 X86.230 Y56.620 E595.83042
G0 F10500 X87.114 Y56.620
G1 F900 X121.816 Y91.323 E597.87388
G0 F10500 X121.816 Y90.439
G1 F900 X87.998 Y56.620 E599.86528
G0 F10500 X88.881 Y56.620
G1 F900 X121.816 Y89.555 E601.80465
G0 F10500 X121.816 Y88.671
G1 F900 X89.765 Y56.620 E603.69197
G0 F10500 X90.649 Y56.620
G1 F900 X121.816 Y87.788 E605.52727
G0 F10500 X121.816 Y86.904
G1 F900 X91.533 Y56.620 E607.31051
G0 F10500 X92.417 Y56.620
G1 F900 X121.816 Y86.020 E609.04170
G0 F10500 X121.816 Y85.136
G1 F900 X93.301 Y56.620 E610.72084
G0 F10500 X94.185 Y56.620
G1 F900 X121.816 Y84.252 E612.34792
G0 F10500 X121.816 Y83.368
G1 F900 X95.069 Y56.620 E613.92294
G0 F10500 X95.952 Y56.620
G1 F900 X121.816 Y82.484 E615.44594
G0 F10500 X121.816 Y81.600
G1 F900 X96.836 Y56.620 E616.91689
G0 F10500 X97.720 Y56.620
G1 F900 X121.816 Y80.716 E618.33578
G0 F10500 X121.816 Y79.833
G1 F900 X98.604 Y56.620 E619.70265
G0 F10500 X99.488 Y56.620
G1 F900 X121.816 Y78.949 E621.01746
G0 F10500 X121.816 Y78.065
G1 F900 X100.372 Y56.620 E622.28022
G0 F10500 X101.256 Y56.620
G1 F900 X121.816 Y77.181 E623.49092
G0 F10500 X121.816 Y76.297
G1 F900 X102.140 Y56.620 E624.64957
G0 F10500 X103.024 Y56.620
G1 F900 X121.816 Y75.413 E625.75617
G0 F10500 X121.816 Y74.529
G1 F900 X103.907 Y56.620 E626.81074
G0 F10500 X104.791 Y56.620
G1 F900 X121.816 Y73.645 E627.81325
G0 F10500 X121.816 Y72.761
G1 F900 X105.675 Y56.620 E628.76372
G0 F10500 X106.559 Y56.620
G1 F900 X121.816 Y71.878 E629.66215
G0 F10500 X121.816 Y70.994
G1 F900 X107.443 Y56.620 E630.50854
G0 F10500 X108.327 Y56.620
G1 F900 X121.816 Y70.110 E631.30286
G0 F10500 X121.816 Y69.226
G1 F900 X109.211 Y56.620 E632.04514
G0 F10500 X109.933 Y56.459
G1 F900 X121.816 Y68.342 E632.74487
G0 F10500 X121.816 Y67.458
G1 F900 X110.614 Y56.256 E633.40450
G0 F10500 X111.098 Y55.856
G1 F900 X121.816 Y66.574 E634.03563
G0 F10500 X121.816 Y65.690
G1 F900 X111.522 Y55.396 E634.64179
G0 F10500 X111.898 Y54.888
G1 F900 X121.816 Y64.807 E635.22584
G0 F10500 X121.816 Y63.923
G1 F900 X112.510 Y54.616 E635.77385
G0 F10500 X113.394 Y54.616
G1 F900 X121.816 Y63.039 E636.26981
G0 F10500 X121.816 Y62.155
G1 F900 X114.278 Y54.616 E636.71371
G0 F10500 X115.162 Y54.616
G1 F900 X121.816 Y61.271 E637.10556
G0 F10500 X121.816 Y60.387
G1 F900 X116.046 Y54.616 E637.44536
G0 F10500 X116.930 Y54.616
G1 F900 X121.816 Y59.503 E637.73310
G0 F10500 X121.816 Y58.619
G1 F900 X117.813 Y54.616 E637.96882
G0 F10500 X118.697 Y54.616
G1 F900 X121.816 Y57.735 E638.15248
G0 F10500 X121.816 Y56.852
G1 F900 X119.581 Y54.616 E638.28412
G0 F10500 X120.465 Y54.616
G1 F900 X121.816 Y55.968 E638.36370
G0 F10500 X121.816 Y55.084
G1 F900 X121.349 Y54.616 E638.39123
;LAYER:1
M106 S191
G1 F600 E636.89123
G1 Z0.525
G0 F10500 X64.283 Y53.961 Z0.805
;TYPE:WALL-INNER
G1 Z0.805
G1 F600 E638.39123
G1 F1140 X64.283 Y142.461 E641.02706
G1 X53.707 Y142.461 E641.34205
G1 X53.556 Y141.846 E641.36091
G1 X53.029 Y141.273 E641.38409
G1 X52.614 Y140.820 E641.40239
G1 X51.393 Y140.457 E641.44033
G1 X26.695 Y140.457 E642.17592
G1 X26.695 Y142.461 E642.23561
G1 X23.456 Y142.461 E642.33208
G1 X23.305 Y141.846 E642.35094
G1 X22.778 Y141.273 E642.37412
G1 X22.361 Y140.819 E642.39248
G1 X21.032 Y140.431 E642.43372
G1 X19.705 Y140.819 E642.47489
G1 X19.166 Y141.403 E642.49856
G1 X18.759 Y141.847 E642.51650
G1 X18.569 Y142.623 E642.54030
G1 X18.481 Y142.983 E642.55133
G1 X17.105 Y146.461 E642.66273
G1 X12.124 Y146.461 E642.81108
G1 X10.782 Y143.069 E642.91973
G1 X10.782 Y113.798 E643.79152
G1 X11.865 Y113.973 E643.82419
G1 X13.039 Y113.784 E643.85961
G1 X13.886 Y113.647 E643.88516
G1 X15.795 Y112.699 E643.94864
G1 X17.513 Y111.197 E644.01661
G1 X18.990 Y109.214 E644.09025
G1 X20.186 Y106.831 E644.16966
G1 X21.065 Y104.136 E644.25409
G1 X21.604 Y101.228 E644.34218
G1 X21.785 Y98.210 E644.43222
G1 X21.604 Y95.193 E644.52224
G1 X21.065 Y92.285 E644.61033
G1 X20.186 Y89.590 E644.69475
G1 X18.990 Y87.207 E644.77417
G1 X17.513 Y85.224 E644.84781
G1 X15.794 Y83.721 E644.91582
G1 X13.886 Y82.774 E644.97926
G1 X11.866 Y82.448 E645.04020
G1 X10.782 Y82.623 E645.07290
G1 X10.782 Y53.961 E645.92655
G1 X18.609 Y53.961 E646.15967
G1 X18.760 Y54.576 E646.17853
G1 X19.286 Y55.148 E646.20167
G1 X19.704 Y55.603 E646.22007
G1 X21.032 Y55.991 E646.26128
G1 X22.360 Y55.603 E646.30249
G1 X22.899 Y55.019 E646.32616
G1 X23.305 Y54.576 E646.34405
G1 X23.456 Y53.961 E646.36291
G1 X26.695 Y53.961 E646.45938
G1 X26.695 Y55.965 E646.51907
G1 X51.395 Y55.965 E647.25472
G1 X52.036 Y55.772 E647.27466
G1 X52.612 Y55.603 E647.29253
G1 X53.150 Y55.019 E647.31618
G1 X53.557 Y54.575 E647.33412
G1 X53.707 Y53.961 E647.35295
G1 X64.283 Y53.961 E647.66794
G0 F10500 X18.151 Y142.461
G1 F1140 X11.080 Y142.461 E647.87853
G1 X12.114 Y145.077 E647.96231
G1 X12.465 Y145.961 E647.99064
G1 X16.765 Y145.961 E648.11871
G1 X17.581 Y143.897 E648.18481
G1 X18.151 Y142.461 E648.23083
G0 F10500 X17.414 Y142.961
;TYPE:WALL-OUTER
G1 F1080 X11.815 Y142.961 E648.39758
G1 X12.804 Y145.461 E648.47766
G1 X16.425 Y145.461 E648.58550
G1 X17.414 Y142.961 E648.66558
G0 F10500 X17.414 Y142.611
G0 X18.958 Y141.854
G0 X19.214 Y142.090
G1 F1080 X18.957 Y143.138 E648.69771
G1 X17.445 Y146.961 E648.82016
G1 X11.784 Y146.961 E648.98876
G1 X10.282 Y143.165 E649.11035
G1 X10.282 Y113.211 E650.00248
G1 X11.865 Y113.466 E650.05023
G1 X13.731 Y113.166 E650.10652
G1 X15.514 Y112.280 E650.16582
G1 X17.144 Y110.856 E650.23029
G1 X18.563 Y108.951 E650.30103
G1 X19.722 Y106.640 E650.37803
G1 X20.580 Y104.013 E650.46034
G1 X21.107 Y101.167 E650.54655
G1 X21.284 Y98.210 E650.63477
G1 X21.107 Y95.254 E650.72297
G1 X20.580 Y92.408 E650.80918
G1 X19.722 Y89.781 E650.89148
G1 X18.563 Y87.470 E650.96848
G1 X17.144 Y85.565 E651.03923
G1 X15.514 Y84.140 E651.10371
G1 X13.731 Y83.255 E651.16300
G1 X11.866 Y82.955 E651.21926
G1 X10.282 Y83.210 E651.26704
G1 X10.282 Y53.461 E652.15307
G1 X19.001 Y53.461 E652.41275
G1 X19.214 Y54.332 E652.43946
G1 X19.978 Y55.162 E652.47306
G1 X21.032 Y55.470 E652.50576
G1 X22.087 Y55.162 E652.53849
G1 X22.850 Y54.332 E652.57207
G1 X23.065 Y53.461 E652.59879
G1 X27.195 Y53.461 E652.72180
G1 X27.195 Y55.465 E652.78148
G1 X51.321 Y55.465 E653.50004
G1 X51.895 Y55.292 E653.51789
G1 X52.338 Y55.162 E653.53164
G1 X53.102 Y54.332 E653.56524
G1 X53.315 Y53.461 E653.59195
G1 X64.783 Y53.461 E653.93350
G1 X64.783 Y142.961 E656.59912
G1 X53.315 Y142.961 E656.94067
G1 X53.102 Y142.090 E656.96738
G1 X52.338 Y141.260 E657.00098
G1 X51.320 Y140.957 E657.03261
G1 X27.195 Y140.957 E657.75113
G1 X27.195 Y142.961 E657.81082
G1 X23.065 Y142.961 E657.93382
G1 X22.850 Y142.090 E657.96054
G1 X22.087 Y141.260 E657.99412
G1 X21.032 Y140.952 E658.02686
G1 X19.978 Y141.260 E658.05956
G1 X19.214 Y142.090 E658.09316
G0 F10500 X17.874 Y142.285
;TYPE:SKIN
G1 F1380 X64.107 Y96.051 E660.04052
G0 F10500 X64.107 Y95.344
G1 F1380 X17.167 Y142.285 E662.01765
G0 F10500 X16.460 Y142.285
G1 F1380 X64.107 Y94.637 E664.02457
G0 F10500 X64.107 Y93.930
G1 F1380 X15.752 Y142.285 E666.06128
G0 F10500 X15.045 Y142.285
G1 F1380 X64.107 Y93.223 E668.12778
G0 F10500 X64.107 Y92.516
G1 F1380 X14.338 Y142.285 E670.22405
G0 F10500 X13.631 Y142.285
G1 F1380 X64.107 Y91.809 E672.35010
G0 F10500 X64.107 Y91.102
G1 F1380 X12.924 Y142.285 E674.50594
G0 F10500 X12.217 Y142.285
G1 F1380 X64.107 Y90.395 E676.69155
G0 F10500 X64.107 Y89.688
G1 F1380 X11.510 Y142.285 E678.90693
G0 F10500 X10.957 Y142.131
G1 F1380 X64.107 Y88.980 E681.14564
G0 F10500 X64.107 Y88.273
G1 F1380 X10.957 Y141.424 E683.38434
G0 F10500 X10.957 Y140.717
G1 F1380 X64.107 Y87.566 E685.62304
G0 F10500 X64.107 Y86.859
G1 F1380 X10.957 Y140.009 E687.86172
G0 F10500 X10.957 Y139.302
G1 F1380 X64.107 Y86.152 E690.10040
G0 F10500 X64.107 Y85.445
G1 F1380 X10.957 Y138.595 E692.33909
G0 F10500 X10.957 Y137.888
G1 F1380 X64.107 Y84.738 E694.57777
G0 F10500 X64.107 Y84.031
G1 F1380 X10.957 Y137.181 E696.81645
G0 F10500 X10.957 Y136.474
G1 F1380 X64.107 Y83.324 E699.05513
G0 F10500 X64.107 Y82.616
G1 F1380 X10.957 Y135.767 E701.29383
G0 F10500 X10.957 Y135.060
G1 F1380 X64.107 Y81.909 E703.53253
G0 F10500 X64.107 Y81.202
G1 F1380 X10.957 Y134.353 E705.77124
G0 F10500 X10.957 Y133.646
G1 F1380 X64.107 Y80.495 E708.00994
G0 F10500 X64.107 Y96.759
G1 F1380 X20.447 Y140.419 E709.84890
G0 F10500 X21.259 Y140.314
G1 F1380 X64.107 Y97.466 E711.65366
G0 F10500 X64.107 Y98.173
G1 F1380 X21.806 Y140.474 E713.43538
G0 F10500 X22.353 Y140.634
G1 F1380 X64.107 Y98.880 E715.19406
G0 F10500 X64.107 Y99.587
G1 F1380 X22.732 Y140.962 E716.93678
G0 F10500 X23.071 Y141.330
G1 F1380 X64.107 Y100.294 E718.66522
G0 F10500 X64.107 Y101.001
G1 F1380 X23.410 Y141.699 E720.37940
G0 F10500 X23.581 Y142.235
G1 F1380 X64.107 Y101.708 E722.08638
G0 F10500 X64.107 Y102.415
G1 F1380 X24.238 Y142.285 E723.76568
G0 F10500 X24.945 Y142.285
G1 F1380 X26.520 Y140.710 E723.83202
G0 F10500 X26.949 Y140.281
G1 F1380 X64.107 Y103.123 E725.39712
G0 F10500 X64.107 Y103.830
G1 F1380 X27.656 Y140.281 E726.93244
G0 F10500 X28.363 Y140.281
G1 F1380 X64.107 Y104.537 E728.43798
G0 F10500 X64.107 Y105.244
G1 F1380 X29.070 Y140.281 E729.91374
G0 F10500 X29.777 Y140.281
G1 F1380 X64.107 Y105.951 E731.35972
G0 F10500 X64.107 Y106.658
G1 F1380 X30.484 Y140.281 E732.77592
G0 F10500 X31.191 Y140.281
G1 F1380 X64.107 Y107.365 E734.16235
G0 F10500 X64.107 Y108.072
G1 F1380 X31.899 Y140.281 E735.51897
G0 F10500 X32.606 Y140.281
G1 F1380 X64.107 Y108.779 E736.84582
G0 F10500 X64.107 Y109.486
G1 F1380 X33.313 Y140.281 E738.14288
G0 F10500 X34.020 Y140.281
G1 F1380 X64.107 Y110.194 E739.41015
G0 F10500 X64.107 Y110.901
G1 F1380 X34.727 Y140.281 E740.64764
G0 F10500 X35.434 Y140.281
G1 F1380 X64.107 Y111.608 E741.85535
G0 F10500 X64.107 Y112.315
G1 F1380 X36.141 Y140.281 E743.03328
G0 F10500 X36.848 Y140.281
G1 F1380 X64.107 Y113.022 E744.18143
G0 F10500 X64.107 Y113.729
G1 F1380 X37.555 Y140.281 E745.29980
G0 F10500 X38.262 Y140.281
G1 F1380 X64.107 Y114.436 E746.38839
G0 F10500 X64.107 Y115.143
G1 F1380 X38.970 Y140.281 E747.44718
G0 F10500 X39.677 Y140.281
G1 F1380 X64.107 Y115.850 E748.47620
G0 F10500 X64.107 Y116.558
G1 F1380 X40.384 Y140.281 E749.47541
G0 F10500 X41.091 Y140.281
G1 F1380 X64.107 Y117.265 E750.44485
G0 F10500 X64.107 Y117.972
G1 F1380 X41.798 Y140.281 E751.38450
G0 F10500 X42.505 Y140.281
G1 F1380 X64.107 Y118.679 E752.29438
G0 F10500 X64.107 Y119.386
G1 F1380 X43.212 Y140.281 E753.17448
G0 F10500 X43.919 Y140.281
G1 F1380 X64.107 Y120.093 E754.02480
G0 F10500 X64.107 Y120.800
G1 F1380 X44.626 Y140.281 E754.84534
G0 F10500 X45.334 Y140.281
G1 F1380 X64.107 Y121.507 E755.63608
G0 F10500 X64.107 Y122.214
G1 F1380 X46.041 Y140.281 E756.39704
G0 F10500 X46.748 Y140.281
G1 F1380 X64.107 Y122.922 E757.12821
G0 F10500 X64.107 Y123.629
G1 F1380 X47.455 Y140.281 E757.82959
G0 F10500 X48.162 Y140.281
G1 F1380 X64.107 Y124.336 E758.50119
G0 F10500 X64.107 Y125.043
G1 F1380 X48.869 Y140.281 E759.14302
G0 F10500 X49.576 Y140.281
G1 F1380 X64.107 Y125.750 E759.75507
G0 F10500 X64.107 Y126.457
G1 F1380 X50.283 Y140.281 E760.33733
G0 F10500 X50.990 Y140.281
G1 F1380 X64.107 Y127.164 E760.88982
G0 F10500 X64.107 Y127.871
G1 F1380 X51.633 Y140.345 E761.41523
G0 F10500 X52.178 Y140.507
G1 F1380 X64.107 Y128.578 E761.91768
G0 F10500 X64.107 Y129.285
G1 F1380 X52.719 Y140.674 E762.39736
G0 F10500 X53.057 Y141.043
G1 F1380 X64.107 Y129.993 E762.86279
G0 F10500 X64.107 Y130.700
G1 F1380 X53.395 Y141.412 E763.31398
G0 F10500 X53.723 Y141.791
G1 F1380 X64.107 Y131.407 E763.75135
G0 F10500 X64.107 Y132.114
G1 F1380 X53.936 Y142.285 E764.17976
G0 F10500 X54.643 Y142.285
G1 F1380 X64.107 Y132.821 E764.57838
G0 F10500 X64.107 Y133.528
G1 F1380 X55.350 Y142.285 E764.94723
G0 F10500 X56.058 Y142.285
G1 F1380 X64.107 Y134.235 E765.28627
G0 F10500 X64.107 Y134.942
G1 F1380 X56.765 Y142.285 E765.59554
G0 F10500 X57.472 Y142.285
G1 F1380 X64.107 Y135.649 E765.87503
G0 F10500 X64.107 Y136.357
G1 F1380 X58.179 Y142.285 E766.12471
G0 F10500 X58.886 Y142.285
G1 F1380 X64.107 Y137.064 E766.34462
G0 F10500 X64.107 Y137.771
G1 F1380 X59.593 Y142.285 E766.53475
G0 F10500 X60.300 Y142.285
G1 F1380 X64.107 Y138.478 E766.69510
G0 F10500 X64.107 Y139.185
G1 F1380 X61.007 Y142.285 E766.82568
G0 F10500 X61.714 Y142.285
G1 F1380 X64.107 Y139.892 E766.92647
G0 F10500 X64.107 Y140.599
G1 F1380 X62.421 Y142.285 E766.99748
G0 F10500 X63.129 Y142.285
G1 F1380 X64.107 Y141.306 E767.03870
G0 F10500 X64.107 Y142.013
G1 F1380 X63.836 Y142.285 E767.05013
G0 F10500 X51.385 Y140.510
G0 X26.804 Y140.566
G0 X26.520 Y142.124
G1 F1380 X26.359 Y142.285 E767.05692
G0 F10500 X25.652 Y142.285
G1 F1380 X26.520 Y141.417 E767.09348
G0 F10500 X10.957 Y132.938
G1 F1380 X64.107 Y79.788 E769.33216
G0 F10500 X64.107 Y79.081
G1 F1380 X10.957 Y132.231 E771.57084
G0 F10500 X10.957 Y131.524
G1 F1380 X64.107 Y78.374 E773.80952
G0 F10500 X64.107 Y77.667
G1 F1380 X10.957 Y130.817 E776.04820
G0 F10500 X10.957 Y130.110
G1 F1380 X64.107 Y76.960 E778.28688
G0 F10500 X64.107 Y76.252
G1 F1380 X10.957 Y129.403 E780.52558
G0 F10500 X10.957 Y128.696
G1 F1380 X64.107 Y75.545 E782.76429
G0 F10500 X64.107 Y74.838
G1 F1380 X10.957 Y127.989 E785.00299
G0 F10500 X10.957 Y127.282
G1 F1380 X64.107 Y74.131 E787.24169
G0 F10500 X64.107 Y73.424
G1 F1380 X10.957 Y126.574 E789.48037
G0 F10500 X10.957 Y125.867
G1 F1380 X64.107 Y72.717 E791.71905
G0 F10500 X64.107 Y72.010
G1 F1380 X10.957 Y125.160 E793.95774
G0 F10500 X10.957 Y124.453
G1 F1380 X64.107 Y71.303 E796.19642
G0 F10500 X64.107 Y70.596
G1 F1380 X10.957 Y123.746 E798.43510
G0 F10500 X10.957 Y123.039
G1 F1380 X64.107 Y69.889 E800.67378
G0 F10500 X64.107 Y69.181
G1 F1380 X10.957 Y122.332 E802.91248
G0 F10500 X10.957 Y121.625
G1 F1380 X64.107 Y68.474 E805.15118
G0 F10500 X64.107 Y67.767
G1 F1380 X10.957 Y120.918 E807.38989
G0 F10500 X10.957 Y120.210
G1 F1380 X64.107 Y67.060 E809.62857
G0 F10500 X64.107 Y66.353
G1 F1380 X10.957 Y119.503 E811.86725
G0 F10500 X10.957 Y118.796
G1 F1380 X64.107 Y65.646 E814.10593
G0 F10500 X64.107 Y64.939
G1 F1380 X10.957 Y118.089 E816.34461
G0 F10500 X10.957 Y117.382
G1 F1380 X15.101 Y113.238 E816.51916
G0 F10500 X13.794 Y113.838
G1 F1380 X10.957 Y116.675 E816.63865
G0 F10500 X10.957 Y115.968
G1 F1380 X12.951 Y113.974 E816.72264
G0 F10500 X12.108 Y114.110
G1 F1380 X10.957 Y115.261 E816.77112
G0 F10500 X10.957 Y114.554
G1 F1380 X11.431 Y114.079 E816.79111
G0 F10500 X13.868 Y113.597
G0 X15.765 Y112.656
G0 X17.474 Y111.161
G0 X19.246 Y109.093
G1 F1380 X64.107 Y64.232 E818.68065
G0 F10500 X64.107 Y63.525
G1 F1380 X19.958 Y107.673 E820.54019
G0 F10500 X20.504 Y106.420
G1 F1380 X64.107 Y62.817 E822.37675
G0 F10500 X64.107 Y62.110
G1 F1380 X20.846 Y105.372 E824.19893
G0 F10500 X21.188 Y104.322
G1 F1380 X64.107 Y61.403 E826.00668
G0 F10500 X64.107 Y60.696
G1 F1380 X21.373 Y103.430 E827.80664
G0 F10500 X21.534 Y102.563
G1 F1380 X64.107 Y59.989 E829.59984
G0 F10500 X64.107 Y59.282
G1 F1380 X21.695 Y101.694 E831.38623
G0 F10500 X21.800 Y100.882
G1 F1380 X64.107 Y58.575 E833.16821
G0 F10500 X64.107 Y57.868
G1 F1380 X21.845 Y100.130 E834.94828
G0 F10500 X21.890 Y99.378
G1 F1380 X64.107 Y57.161 E836.72647
G0 F10500 X64.107 Y56.453
G1 F1380 X21.935 Y98.626 E838.50278
G0 F10500 X21.942 Y97.911
G1 F1380 X64.107 Y55.746 E840.27877
G0 F10500 X64.107 Y55.039
G1 F1380 X21.902 Y97.244 E842.05644
G0 F10500 X21.863 Y96.577
G1 F1380 X64.107 Y54.332 E843.83579
G0 F10500 X63.597 Y54.135
G1 F1380 X21.823 Y95.909 E845.59531
G0 F10500 X21.783 Y95.243
G1 F1380 X62.890 Y54.135 E847.32676
G0 F10500 X62.183 Y54.135
G1 F1380 X21.679 Y94.639 E849.03279
G0 F10500 X21.569 Y94.042
G1 F1380 X61.476 Y54.135 E850.71368
G0 F10500 X60.769 Y54.135
G1 F1380 X21.458 Y93.446 E852.36946
G0 F10500 X21.348 Y92.849
G1 F1380 X60.062 Y54.135 E854.00009
G0 F10500 X59.355 Y54.135
G1 F1380 X21.237 Y92.252 E855.60561
G0 F10500 X21.065 Y91.718
G1 F1380 X58.648 Y54.135 E857.18860
G0 F10500 X57.941 Y54.135
G1 F1380 X20.891 Y91.184 E858.74913
G0 F10500 X20.717 Y90.651
G1 F1380 X57.233 Y54.135 E860.28719
G0 F10500 X56.526 Y54.135
G1 F1380 X20.543 Y90.118 E861.80279
G0 F10500 X20.369 Y89.585
G1 F1380 X55.819 Y54.135 E863.29595
G0 F10500 X55.112 Y54.135
G1 F1380 X20.140 Y89.107 E864.76897
G0 F10500 X19.903 Y88.637
G1 F1380 X54.405 Y54.135 E866.22220
G0 F10500 X51.811 Y56.022
G1 F1380 X19.667 Y88.166 E867.57611
G0 F10500 X19.431 Y87.695
G1 F1380 X50.987 Y56.139 E868.90525
G0 F10500 X50.280 Y56.139
G1 F1380 X19.195 Y87.224 E870.21455
G0 F10500 X18.908 Y86.803
G1 F1380 X49.573 Y56.139 E871.50614
G0 F10500 X48.866 Y56.139
G1 F1380 X18.606 Y86.398 E872.78067
G0 F10500 X18.305 Y85.992
G1 F1380 X48.158 Y56.139 E874.03808
G0 F10500 X47.451 Y56.139
G1 F1380 X18.003 Y85.587 E875.27843
G0 F10500 X17.701 Y85.182
G1 F1380 X46.744 Y56.139 E876.50173
G0 F10500 X46.037 Y56.139
G1 F1380 X17.338 Y84.837 E877.71051
G0 F10500 X16.961 Y84.508
G1 F1380 X45.330 Y56.139 E878.90541
G0 F10500 X44.623 Y56.139
G1 F1380 X16.584 Y84.178 E880.08642
G0 F10500 X16.206 Y83.848
G1 F1380 X43.916 Y56.139 E881.25354
G0 F10500 X43.209 Y56.139
G1 F1380 X15.814 Y83.534 E882.40742
G0 F10500 X15.341 Y83.300
G1 F1380 X42.502 Y56.139 E883.55144
G0 F10500 X41.794 Y56.139
G1 F1380 X14.869 Y83.065 E884.68555
G0 F10500 X14.396 Y82.830
G1 F1380 X41.087 Y56.139 E885.80978
G0 F10500 X40.380 Y56.139
G1 F1380 X13.918 Y82.601 E886.92436
G0 F10500 X13.309 Y82.503
G1 F1380 X39.673 Y56.139 E888.03481
G0 F10500 X38.966 Y56.139
G1 F1380 X12.701 Y82.404 E889.14109
G0 F10500 X12.092 Y82.306
G1 F1380 X38.259 Y56.139 E890.24325
G0 F10500 X37.552 Y56.139
G1 F1380 X11.336 Y82.355 E891.34747
G0 F10500 X10.957 Y82.027
G1 F1380 X36.845 Y56.139 E892.43787
G0 F10500 X36.138 Y56.139
G1 F1380 X10.957 Y81.320 E893.49850
G0 F10500 X10.957 Y80.613
G1 F1380 X35.430 Y56.139 E894.52932
G0 F10500 X34.723 Y56.139
G1 F1380 X10.957 Y79.905 E895.53035
G0 F10500 X10.957 Y79.198
G1 F1380 X34.016 Y56.139 E896.50159
G0 F10500 X33.309 Y56.139
G1 F1380 X10.957 Y78.491 E897.44306
G0 F10500 X10.957 Y77.784
G1 F1380 X32.602 Y56.139 E898.35475
G0 F10500 X31.895 Y56.139
G1 F1380 X10.957 Y77.077 E899.23666
G0 F10500 X10.957 Y76.370
G1 F1380 X31.188 Y56.139 E900.08879
G0 F10500 X30.481 Y56.139
G1 F1380 X10.957 Y75.663 E900.91114
G0 F10500 X10.957 Y74.956
G1 F1380 X29.774 Y56.139 E901.70372
G0 F10500 X29.067 Y56.139
G1 F1380 X10.957 Y74.249 E902.46651
G0 F10500 X10.957 Y73.541
G1 F1380 X28.359 Y56.139 E903.19948
G0 F10500 X27.652 Y56.139
G1 F1380 X10.957 Y72.834 E903.90268
G0 F10500 X10.957 Y72.127
G1 F1380 X26.945 Y56.139 E904.57609
G0 F10500 X26.520 Y55.857
G1 F1380 X10.957 Y71.420 E905.23161
G0 F10500 X10.957 Y70.713
G1 F1380 X26.520 Y55.150 E905.88712
G0 F10500 X26.520 Y54.443
G1 F1380 X10.957 Y70.006 E906.54264
G0 F10500 X10.957 Y69.299
G1 F1380 X26.121 Y54.135 E907.18135
G0 F10500 X25.414 Y54.135
G1 F1380 X10.957 Y68.592 E907.79028
G0 F10500 X10.957 Y67.885
G1 F1380 X24.707 Y54.135 E908.36943
G0 F10500 X23.999 Y54.135
G1 F1380 X23.350 Y54.785 E908.39678
G0 F10500 X22.345 Y55.789
G1 F1380 X10.957 Y67.177 E908.87645
G0 F10500 X10.957 Y66.470
G1 F1380 X21.348 Y56.079 E909.31412
G0 F10500 X20.658 Y56.062
G1 F1380 X10.957 Y65.763 E909.72272
G0 F10500 X10.957 Y65.056
G1 F1380 X20.110 Y55.903 E910.10825
G0 F10500 X19.579 Y55.727
G1 F1380 X10.957 Y64.349 E910.47141
G0 F10500 X10.957 Y63.642
G1 F1380 X19.241 Y55.358 E910.82033
G0 F10500 X18.903 Y54.989
G1 F1380 X10.957 Y62.935 E911.15502
G0 F10500 X10.957 Y62.228
G1 F1380 X18.585 Y54.599 E911.47633
G0 F10500 X18.343 Y54.135
G1 F1380 X10.957 Y61.521 E911.78743
G0 F10500 X10.957 Y60.814
G1 F1380 X17.635 Y54.135 E912.06873
G0 F10500 X16.928 Y54.135
G1 F1380 X10.957 Y60.106 E912.32023
G0 F10500 X10.957 Y59.399
G1 F1380 X16.221 Y54.135 E912.54195
G0 F10500 X15.514 Y54.135
G1 F1380 X10.957 Y58.692 E912.73389
G0 F10500 X10.957 Y57.985
G1 F1380 X14.807 Y54.135 E912.89605
G0 F10500 X14.100 Y54.135
G1 F1380 X10.957 Y57.278 E913.02843
G0 F10500 X10.957 Y56.571
G1 F1380 X13.393 Y54.135 E913.13104
G0 F10500 X12.686 Y54.135
G1 F1380 X10.957 Y55.864 E913.20386
G0 F10500 X10.957 Y55.157
G1 F1380 X11.979 Y54.135 E913.24691
G0 F10500 X11.271 Y54.135
G1 F1380 X10.957 Y54.450 E913.26016
G1 F600 E911.76016
G1 Z0.905
G0 F10500 X68.723 Y54.211
;TYPE:WALL-INNER
G1 Z0.805
G1 F600 E913.26016
G1 F1140 X76.550 Y54.211 E913.49327
G1 X76.701 Y54.826 E913.51213
G1 X77.227 Y55.398 E913.53528
G1 X77.645 Y55.853 E913.55368
G1 X78.973 Y56.241 E913.59488
G1 X80.302 Y55.853 E913.63612
G1 X81.245 Y54.826 E913.67764
G1 X81.396 Y54.211 E913.69651
G1 X84.635 Y54.211 E913.79297
G1 X84.635 Y56.215 E913.85266
G1 X109.333 Y56.215 E914.58825
G1 X110.553 Y55.852 E914.62616
G1 X111.090 Y55.269 E914.64977
G1 X111.497 Y54.825 E914.66771
G1 X111.647 Y54.211 E914.68653
G1 X122.223 Y54.211 E915.00152
G1 X122.223 Y142.711 E917.63735
G1 X111.647 Y142.711 E917.95234
G1 X111.496 Y142.096 E917.97120
G1 X110.969 Y141.523 E917.99438
G1 X110.554 Y141.070 E918.01268
G1 X109.333 Y140.707 E918.05062
G1 X84.635 Y140.707 E918.78621
G1 X84.635 Y142.711 E918.84590
G1 X81.396 Y142.711 E918.94236
G1 X81.245 Y142.096 E918.96123
G1 X80.302 Y141.069 E919.00275
G1 X78.973 Y140.681 E919.04399
G1 X77.646 Y141.069 E919.08516
G1 X77.107 Y141.653 E919.10883
G1 X76.700 Y142.097 E919.12677
G1 X76.510 Y142.873 E919.15057
G1 X76.422 Y143.233 E919.16160
G1 X75.046 Y146.711 E919.27300
G1 X70.065 Y146.711 E919.42135
G1 X68.723 Y143.319 E919.53000
G1 X68.723 Y114.048 E920.40179
G1 X69.806 Y114.223 E920.43446
G1 X70.980 Y114.034 E920.46988
G1 X71.827 Y113.897 E920.49543
G1 X73.736 Y112.949 E920.55891
G1 X75.454 Y111.447 E920.62688
G1 X76.931 Y109.464 E920.70052
G1 X78.127 Y107.081 E920.77993
G1 X79.006 Y104.386 E920.86436
G1 X79.545 Y101.478 E920.95245
G1 X79.726 Y98.460 E921.04249
G1 X79.545 Y95.443 E921.13251
G1 X79.006 Y92.535 E921.22060
G1 X78.127 Y89.840 E921.30502
G1 X76.931 Y87.457 E921.38444
G1 X75.454 Y85.474 E921.45808
G1 X73.735 Y83.971 E921.52609
G1 X71.827 Y83.024 E921.58953
G1 X69.807 Y82.698 E921.65047
G1 X68.723 Y82.873 E921.68317
G1 X68.723 Y54.211 E922.53682
G0 F10500 X78.957 Y92.547
G0 X79.676 Y98.460
G0 X78.957 Y104.374
G0 X78.080 Y107.062
G0 X76.887 Y109.437
G0 X75.415 Y111.411
G0 X73.706 Y112.906
G0 X71.809 Y113.847
G0 X69.021 Y142.711
G1 F1140 X70.055 Y145.327 E922.62060
G1 X70.406 Y146.211 E922.64893
G1 X74.706 Y146.211 E922.77700
G1 X75.522 Y144.147 E922.84310
G1 X76.092 Y142.711 E922.88912
G1 X69.021 Y142.711 E923.09971
G0 F10500 X69.756 Y143.211
;TYPE:WALL-OUTER
G1 F1080 X70.745 Y145.711 E923.17979
G1 X74.366 Y145.711 E923.28763
G1 X75.355 Y143.211 E923.36771
G1 X69.756 Y143.211 E923.53446
G0 F10500 X69.756 Y142.861
G0 X69.224 Y142.849
G0 X68.573 Y143.355
G0 X68.223 Y143.414
G1 F1080 X68.223 Y113.461 E924.42656
G1 X69.806 Y113.716 E924.47432
G1 X71.672 Y113.416 E924.53061
G1 X73.455 Y112.530 E924.58991
G1 X75.085 Y111.106 E924.65437
G1 X76.504 Y109.201 E924.72512
G1 X77.663 Y106.890 E924.80212
G1 X78.521 Y104.263 E924.88443
G1 X79.048 Y101.417 E924.97063
G1 X79.225 Y98.460 E925.05886
G1 X79.048 Y95.504 E925.14706
G1 X78.521 Y92.658 E925.23326
G1 X77.663 Y90.031 E925.31557
G1 X76.504 Y87.720 E925.39257
G1 X75.085 Y85.815 E925.46332
G1 X73.455 Y84.390 E925.52780
G1 X71.672 Y83.505 E925.58709
G1 X69.807 Y83.205 E925.64335
G1 X68.223 Y83.460 E925.69113
G1 X68.223 Y53.711 E926.57716
G1 X76.942 Y53.711 E926.83684
G1 X77.155 Y54.582 E926.86354
G1 X77.919 Y55.412 E926.89714
G1 X78.973 Y55.720 E926.92985
G1 X80.028 Y55.412 E926.96258
G1 X80.790 Y54.582 E926.99614
G1 X81.005 Y53.711 E927.02286
G1 X85.135 Y53.711 E927.14586
G1 X85.135 Y55.715 E927.20555
G1 X109.260 Y55.715 E927.92407
G1 X110.278 Y55.412 E927.95571
G1 X111.042 Y54.582 E927.98931
G1 X111.255 Y53.711 E928.01601
G1 X122.723 Y53.711 E928.35757
G1 X122.723 Y143.211 E931.02318
G1 X111.255 Y143.211 E931.36474
G1 X111.042 Y142.340 E931.39144
G1 X110.278 Y141.510 E931.42504
G1 X109.260 Y141.207 E931.45667
G1 X85.135 Y141.207 E932.17520
G1 X85.135 Y143.211 E932.23488
G1 X81.005 Y143.211 E932.35789
G1 X80.790 Y142.340 E932.38461
G1 X80.028 Y141.510 E932.41817
G1 X78.973 Y141.202 E932.45090
G1 X77.919 Y141.510 E932.48360
G1 X77.155 Y142.340 E932.51720
G1 X76.898 Y143.388 E932.54934
G1 X75.386 Y147.211 E932.67178
G1 X69.725 Y147.211 E932.84039
G1 X68.223 Y143.414 E932.96200
G0 F10500 X68.951 Y143.197
;TYPE:FILL
G1 F1260 X69.073 Y143.319 E932.96714
G0 F10500 X70.001 Y145.666
G1 F1260 X69.885 Y145.782 E932.97203
G0 F10500 X69.224 Y142.849
G0 X69.949 Y142.535
;TYPE:SKIN
G1 F1380 X122.047 Y90.438 E935.16638
G0 F10500 X122.047 Y91.145
G1 F1380 X70.656 Y142.535 E937.33095
G0 F10500 X71.364 Y142.535
G1 F1380 X122.047 Y91.852 E939.46572
G0 F10500 X122.047 Y92.559
G1 F1380 X72.071 Y142.535 E941.57071
G0 F10500 X72.778 Y142.535
G1 F1380 X122.047 Y93.266 E943.64592
G0 F10500 X122.047 Y93.973
G1 F1380 X73.485 Y142.535 E945.69136
G0 F10500 X74.192 Y142.535
G1 F1380 X122.047 Y94.680 E947.70701
G0 F10500 X122.047 Y95.387
G1 F1380 X74.899 Y142.535 E949.69289
G0 F10500 X75.606 Y142.535
G1 F1380 X122.047 Y96.095 E951.64897
G0 F10500 X122.047 Y96.802
G1 F1380 X78.093 Y140.755 E953.50029
G0 F10500 X79.038 Y140.518
G1 F1380 X122.047 Y97.509 E955.31183
G0 F10500 X122.047 Y98.216
G1 F1380 X79.586 Y140.677 E957.10029
G0 F10500 X77.677 Y141.120
G0 X76.444 Y142.404
G1 F1380 X76.313 Y142.535 E957.10581
G0 F10500 X69.242 Y142.535
G1 F1380 X122.047 Y89.731 E959.32994
G0 F10500 X122.047 Y89.024
G1 F1380 X68.898 Y142.173 E961.56858
G0 F10500 X68.898 Y141.465
G1 F1380 X122.047 Y88.316 E963.80722
G0 F10500 X122.047 Y87.609
G1 F1380 X68.898 Y140.758 E966.04586
G0 F10500 X68.898 Y140.051
G1 F1380 X122.047 Y86.902 E968.28450
G0 F10500 X122.047 Y86.195
G1 F1380 X68.898 Y139.344 E970.52314
G0 F10500 X68.898 Y138.637
G1 F1380 X122.047 Y85.488 E972.76177
G0 F10500 X122.047 Y84.781
G1 F1380 X68.898 Y137.930 E975.00041
G0 F10500 X68.898 Y137.223
G1 F1380 X122.047 Y84.074 E977.23905
G0 F10500 X122.047 Y83.367
G1 F1380 X68.898 Y136.516 E979.47769
G0 F10500 X68.898 Y135.809
G1 F1380 X122.047 Y82.660 E981.71633
G0 F10500 X122.047 Y81.952
G1 F1380 X68.898 Y135.101 E983.95497
G0 F10500 X68.898 Y134.394
G1 F1380 X122.047 Y81.245 E986.19361
G0 F10500 X122.047 Y80.538
G1 F1380 X68.898 Y133.687 E988.43225
G0 F10500 X68.898 Y132.980
G1 F1380 X122.047 Y79.831 E990.67089
G0 F10500 X122.047 Y79.124
G1 F1380 X68.898 Y132.273 E992.90953
G0 F10500 X68.898 Y131.566
G1 F1380 X122.047 Y78.417 E995.14817
G0 F10500 X122.047 Y77.710
G1 F1380 X68.898 Y130.859 E997.38681
G0 F10500 X68.898 Y130.152
G1 F1380 X122.047 Y77.003 E999.62544
G0 F10500 X122.047 Y76.296
G1 F1380 X68.898 Y129.445 E1001.86408
G0 F10500 X68.898 Y128.737
G1 F1380 X122.047 Y75.589 E1004.10270
G0 F10500 X122.047 Y74.881
G1 F1380 X68.898 Y128.030 E1006.34134
G0 F10500 X68.898 Y127.323
G1 F1380 X122.047 Y74.174 E1008.57998
G0 F10500 X122.047 Y73.467
G1 F1380 X68.898 Y126.616 E1010.81862
G0 F10500 X68.898 Y125.909
G1 F1380 X122.047 Y72.760 E1013.05726
G0 F10500 X122.047 Y72.053
G1 F1380 X68.898 Y125.202 E1015.29590
G0 F10500 X68.898 Y124.495
G1 F1380 X122.047 Y71.346 E1017.53454
G0 F10500 X122.047 Y70.639
G1 F1380 X68.898 Y123.788 E1019.77318
G0 F10500 X68.898 Y123.081
G1 F1380 X122.047 Y69.932 E1022.01182
G0 F10500 X122.047 Y69.225
G1 F1380 X68.898 Y122.374 E1024.25045
G0 F10500 X68.898 Y121.666
G1 F1380 X122.047 Y68.517 E1026.48909
G0 F10500 X122.047 Y67.810
G1 F1380 X68.898 Y120.959 E1028.72773
G0 F10500 X68.898 Y120.252
G1 F1380 X122.047 Y67.103 E1030.96637
G0 F10500 X122.047 Y66.396
G1 F1380 X68.898 Y119.545 E1033.20501
G0 F10500 X68.898 Y118.838
G1 F1380 X122.047 Y65.689 E1035.44365
G0 F10500 X122.047 Y64.982
G1 F1380 X75.933 Y111.096 E1037.38597
G0 F10500 X74.624 Y112.405
G1 F1380 X68.898 Y118.131 E1037.62715
G0 F10500 X68.898 Y117.424
G1 F1380 X72.627 Y113.694 E1037.78424
G0 F10500 X71.486 Y114.129
G1 F1380 X68.898 Y116.717 E1037.89325
G0 F10500 X68.898 Y116.010
G1 F1380 X70.644 Y114.264 E1037.96679
G0 F10500 X69.802 Y114.398
G1 F1380 X68.898 Y115.302 E1038.00487
G0 F10500 X68.898 Y114.595
G1 F1380 X69.193 Y114.300 E1038.01729
G0 F10500 X71.809 Y113.847
G0 X73.706 Y112.906
G0 X75.415 Y111.411
G0 X77.396 Y108.926
G1 F1380 X122.047 Y64.275 E1039.89799
G0 F10500 X122.047 Y63.568
G1 F1380 X78.108 Y107.507 E1041.74871
G0 F10500 X78.546 Y106.362
G1 F1380 X122.047 Y62.861 E1043.58097
G0 F10500 X122.047 Y62.153
G1 F1380 X78.888 Y105.312 E1045.39883
G0 F10500 X79.201 Y104.292
G1 F1380 X122.047 Y61.446 E1047.20351
G0 F10500 X122.047 Y60.739
G1 F1380 X79.362 Y103.424 E1049.00140
G0 F10500 X79.523 Y102.556
G1 F1380 X122.047 Y60.032 E1050.79252
G0 F10500 X122.047 Y59.325
G1 F1380 X79.683 Y101.689 E1052.57689
G0 F10500 X79.755 Y100.910
G1 F1380 X122.047 Y58.618 E1054.35823
G0 F10500 X122.047 Y57.911
G1 F1380 X79.799 Y100.158 E1056.13770
G0 F10500 X79.844 Y99.407
G1 F1380 X122.047 Y57.204 E1057.91529
G0 F10500 X122.047 Y56.497
G1 F1380 X79.889 Y98.654 E1059.69097
G0 F10500 X79.871 Y97.965
G1 F1380 X122.047 Y55.790 E1061.46740
G0 F10500 X122.047 Y55.082
G1 F1380 X79.832 Y97.297 E1063.24550
G0 F10500 X79.792 Y96.631
G1 F1380 X122.037 Y54.385 E1065.02489
G0 F10500 X121.330 Y54.385
G1 F1380 X79.752 Y95.963 E1066.77615
G0 F10500 X79.698 Y95.310
G1 F1380 X120.623 Y54.385 E1068.49992
G0 F10500 X119.916 Y54.385
G1 F1380 X79.588 Y94.713 E1070.19853
G0 F10500 X79.477 Y94.117
G1 F1380 X119.209 Y54.385 E1071.87205
G0 F10500 X118.501 Y54.385
G1 F1380 X79.367 Y93.520 E1073.52040
G0 F10500 X79.256 Y92.924
G1 F1380 X117.794 Y54.385 E1075.14364
G0 F10500 X117.087 Y54.385
G1 F1380 X79.128 Y92.344 E1076.74248
G0 F10500 X78.954 Y91.811
G1 F1380 X116.380 Y54.385 E1078.31886
G0 F10500 X115.673 Y54.385
G1 F1380 X78.781 Y91.277 E1079.87275
G0 F10500 X78.607 Y90.744
G1 F1380 X114.966 Y54.385 E1081.40420
G0 F10500 X114.259 Y54.385
G1 F1380 X78.433 Y90.211 E1082.91319
G0 F10500 X78.248 Y89.689
G1 F1380 X113.552 Y54.385 E1084.40020
G0 F10500 X112.845 Y54.385
G1 F1380 X78.012 Y89.218 E1085.86737
G0 F10500 X77.775 Y88.748
G1 F1380 X110.463 Y56.060 E1087.24419
G0 F10500 X109.456 Y56.359
G1 F1380 X77.539 Y88.277 E1088.58855
G0 F10500 X77.303 Y87.806
G1 F1380 X108.719 Y56.389 E1089.91182
G0 F10500 X108.012 Y56.389
G1 F1380 X77.063 Y87.339 E1091.21541
G0 F10500 X76.761 Y86.933
G1 F1380 X107.305 Y56.389 E1092.50193
G0 F10500 X106.598 Y56.389
G1 F1380 X76.459 Y86.528 E1093.77139
G0 F10500 X76.157 Y86.123
G1 F1380 X105.891 Y56.389 E1095.02378
G0 F10500 X105.184 Y56.389
G1 F1380 X75.855 Y85.718 E1096.25912
G0 F10500 X75.545 Y85.320
G1 F1380 X104.477 Y56.389 E1097.47772
G0 F10500 X103.770 Y56.389
G1 F1380 X75.168 Y84.990 E1098.68242
G0 F10500 X74.791 Y84.661
G1 F1380 X103.062 Y56.389 E1099.87321
G0 F10500 X102.355 Y56.389
G1 F1380 X74.414 Y84.330 E1101.05009
G0 F10500 X74.037 Y84.000
G1 F1380 X101.648 Y56.389 E1102.21307
G0 F10500 X100.941 Y56.389
G1 F1380 X73.616 Y83.715 E1103.36402
G0 F10500 X73.143 Y83.481
G1 F1380 X100.234 Y56.389 E1104.50511
G0 F10500 X109.325 Y56.162
G0 X110.522 Y55.801
G0 X111.669 Y54.854
G1 F1380 X112.137 Y54.385 E1104.52485
G0 F10500 X110.522 Y55.801
G0 X109.325 Y56.162
G0 X99.527 Y56.389
G1 F1380 X72.670 Y83.246 E1105.65607
G0 F10500 X72.197 Y83.012
G1 F1380 X98.820 Y56.389 E1106.77743
G0 F10500 X98.113 Y56.389
G1 F1380 X71.680 Y82.822 E1107.89079
G0 F10500 X71.071 Y82.724
G1 F1380 X97.406 Y56.389 E1109.00002
G0 F10500 X96.698 Y56.389
G1 F1380 X70.461 Y82.626 E1110.10512
G0 F10500 X69.852 Y82.528
G1 F1380 X95.991 Y56.389 E1111.20610
G0 F10500 X95.284 Y56.389
G1 F1380 X69.028 Y82.645 E1112.31200
G0 F10500 X68.897 Y82.069
G1 F1380 X94.577 Y56.389 E1113.39365
G0 F10500 X93.870 Y56.389
G1 F1380 X68.897 Y81.362 E1114.44551
G0 F10500 X68.897 Y80.655
G1 F1380 X93.163 Y56.389 E1115.46760
G0 F10500 X92.456 Y56.389
G1 F1380 X68.897 Y79.948 E1116.45990
G0 F10500 X68.897 Y79.241
G1 F1380 X91.749 Y56.389 E1117.42243
G0 F10500 X91.042 Y56.389
G1 F1380 X68.897 Y78.534 E1118.35518
G0 F10500 X68.897 Y77.827
G1 F1380 X90.335 Y56.389 E1119.25815
G0 F10500 X89.627 Y56.389
G1 F1380 X68.897 Y77.119 E1120.13130
G0 F10500 X68.897 Y76.412
G1 F1380 X88.920 Y56.389 E1120.97467
G0 F10500 X88.213 Y56.389
G1 F1380 X68.897 Y75.705 E1121.78826
G0 F10500 X68.897 Y74.998
G1 F1380 X87.506 Y56.389 E1122.57207
G0 F10500 X86.799 Y56.389
G1 F1380 X68.897 Y74.291 E1123.32611
G0 F10500 X68.897 Y73.584
G1 F1380 X86.092 Y56.389 E1124.05036
G0 F10500 X85.385 Y56.389
G1 F1380 X68.897 Y72.877 E1124.74484
G0 F10500 X68.897 Y72.170
G1 F1380 X84.678 Y56.389 E1125.40953
G0 F10500 X84.458 Y55.901
G1 F1380 X68.897 Y71.463 E1126.06498
G0 F10500 X68.897 Y70.755
G1 F1380 X84.458 Y55.194 E1126.72041
G0 F10500 X84.458 Y54.487
G1 F1380 X68.897 Y70.048 E1127.37584
G0 F10500 X68.897 Y69.341
G1 F1380 X83.853 Y54.385 E1128.00579
G0 F10500 X83.146 Y54.385
G1 F1380 X68.897 Y68.634 E1128.60596
G0 F10500 X68.897 Y67.927
G1 F1380 X82.439 Y54.385 E1129.17635
G0 F10500 X81.732 Y54.385
G1 F1380 X81.467 Y54.650 E1129.18751
G0 F10500 X79.994 Y56.123
G1 F1380 X68.897 Y67.220 E1129.65492
G0 F10500 X68.897 Y66.513
G1 F1380 X78.995 Y56.415 E1130.08025
G0 F10500 X78.437 Y56.265
G1 F1380 X68.897 Y65.806 E1130.48209
G0 F10500 X68.897 Y65.099
G1 F1380 X77.889 Y56.106 E1130.86086
G0 F10500 X77.420 Y55.869
G1 F1380 X68.897 Y64.391 E1131.21983
G0 F10500 X68.897 Y63.684
G1 F1380 X77.081 Y55.500 E1131.56454
G0 F10500 X76.743 Y55.132
G1 F1380 X68.897 Y62.977 E1131.89499
G0 F10500 X68.897 Y62.270
G1 F1380 X76.484 Y54.683 E1132.21455
G0 F10500 X76.075 Y54.385
G1 F1380 X68.897 Y61.563 E1132.51689
G0 F10500 X68.897 Y60.856
G1 F1380 X75.368 Y54.385 E1132.78945
G0 F10500 X74.661 Y54.385
G1 F1380 X68.897 Y60.149 E1133.03223
G0 F10500 X68.897 Y59.442
G1 F1380 X73.954 Y54.385 E1133.24523
G0 F10500 X73.247 Y54.385
G1 F1380 X68.897 Y58.735 E1133.42845
G0 F10500 X68.897 Y58.028
G1 F1380 X72.539 Y54.385 E1133.58188
G0 F10500 X71.832 Y54.385
G1 F1380 X68.897 Y57.320 E1133.70550
G0 F10500 X68.897 Y56.613
G1 F1380 X71.125 Y54.385 E1133.79934
G0 F10500 X70.418 Y54.385
G1 F1380 X68.897 Y55.906 E1133.86341
G0 F10500 X68.897 Y55.199
G1 F1380 X69.711 Y54.385 E1133.89769
G0 F10500 X69.004 Y54.385
G1 F1380 X68.897 Y54.492 E1133.90220
G0 F10500 X122.047 Y98.923
G1 F1380 X80.133 Y140.837 E1135.66762
G0 F10500 X80.574 Y141.103
G1 F1380 X122.047 Y99.630 E1137.41447
G0 F10500 X122.047 Y100.337
G1 F1380 X80.912 Y141.472 E1139.14707
G0 F10500 X81.250 Y141.841
G1 F1380 X122.047 Y101.044 E1140.86545
G0 F10500 X122.047 Y101.751
G1 F1380 X81.480 Y142.318 E1142.57413
G0 F10500 X81.971 Y142.535
G1 F1380 X122.047 Y102.459 E1144.26213
G0 F10500 X122.047 Y103.166
G1 F1380 X84.682 Y140.531 E1145.83595
G0 F10500 X84.460 Y140.753
G1 F1380 X82.678 Y142.535 E1145.91101
G0 F10500 X83.385 Y142.535
G1 F1380 X84.460 Y141.460 E1145.95629
G0 F10500 X84.460 Y142.167
G1 F1380 X84.092 Y142.535 E1145.97179
G0 F10500 X84.744 Y140.816
G0 X85.389 Y140.531
G1 F1380 X122.047 Y103.873 E1147.51583
G0 F10500 X122.047 Y104.580
G1 F1380 X86.096 Y140.531 E1149.03008
G0 F10500 X86.803 Y140.531
G1 F1380 X122.047 Y105.287 E1150.51456
G0 F10500 X122.047 Y105.994
G1 F1380 X87.510 Y140.531 E1151.96926
G0 F10500 X88.217 Y140.531
G1 F1380 X122.047 Y106.701 E1153.39419
G0 F10500 X122.047 Y107.408
G1 F1380 X88.925 Y140.531 E1154.78931
G0 F10500 X89.632 Y140.531
G1 F1380 X122.047 Y108.115 E1156.15465
G0 F10500 X122.047 Y108.823
G1 F1380 X90.339 Y140.531 E1157.49019
G0 F10500 X91.046 Y140.531
G1 F1380 X122.047 Y109.530 E1158.79596
G0 F10500 X122.047 Y110.237
G1 F1380 X91.753 Y140.531 E1160.07194
G0 F10500 X92.460 Y140.531
G1 F1380 X122.047 Y110.944 E1161.31815
G0 F10500 X122.047 Y111.651
G1 F1380 X93.167 Y140.531 E1162.53458
G0 F10500 X93.874 Y140.531
G1 F1380 X122.047 Y112.358 E1163.72122
G0 F10500 X122.047 Y113.065
G1 F1380 X94.581 Y140.531 E1164.87809
G0 F10500 X95.289 Y140.531
G1 F1380 X122.047 Y113.772 E1166.00516
G0 F10500 X122.047 Y114.479
G1 F1380 X95.996 Y140.531 E1167.10245
G0 F10500 X96.703 Y140.531
G1 F1380 X122.047 Y115.186 E1168.16997
G0 F10500 X122.047 Y115.894
G1 F1380 X97.410 Y140.531 E1169.20768
G0 F10500 X98.117 Y140.531
G1 F1380 X122.047 Y116.601 E1170.21561
G0 F10500 X122.047 Y117.308
G1 F1380 X98.824 Y140.531 E1171.19377
G0 F10500 X99.531 Y140.531
G1 F1380 X122.047 Y118.015 E1172.14214
G0 F10500 X122.047 Y118.722
G1 F1380 X100.238 Y140.531 E1173.06074
G0 F10500 X100.945 Y140.531
G1 F1380 X122.047 Y119.429 E1173.94955
G0 F10500 X122.047 Y120.136
G1 F1380 X101.652 Y140.531 E1174.80859
G0 F10500 X102.360 Y140.531
G1 F1380 X122.047 Y120.843 E1175.63783
G0 F10500 X122.047 Y121.550
G1 F1380 X103.067 Y140.531 E1176.43729
G0 F10500 X103.774 Y140.531
G1 F1380 X122.047 Y122.258 E1177.20695
G0 F10500 X122.047 Y122.965
G1 F1380 X104.481 Y140.531 E1177.94683
G0 F10500 X105.188 Y140.531
G1 F1380 X122.047 Y123.672 E1178.65693
G0 F10500 X122.047 Y124.379
G1 F1380 X105.895 Y140.531 E1179.33726
G0 F10500 X106.602 Y140.531
G1 F1380 X122.047 Y125.086 E1179.98780
G0 F10500 X122.047 Y125.793
G1 F1380 X107.309 Y140.531 E1180.60857
G0 F10500 X108.016 Y140.531
G1 F1380 X122.047 Y126.500 E1181.19955
G0 F10500 X122.047 Y127.207
G1 F1380 X108.724 Y140.531 E1181.76074
G0 F10500 X109.414 Y140.548
G1 F1380 X122.047 Y127.914 E1182.29287
G0 F10500 X122.047 Y128.622
G1 F1380 X109.958 Y140.710 E1182.80203
G0 F10500 X110.503 Y140.872
G1 F1380 X122.047 Y129.329 E1183.28825
G0 F10500 X122.047 Y130.036
G1 F1380 X110.898 Y141.185 E1183.75784
G0 F10500 X111.237 Y141.553
G1 F1380 X122.047 Y130.743 E1184.21316
G0 F10500 X122.047 Y131.450
G1 F1380 X111.575 Y141.921 E1184.65422
G0 F10500 X111.761 Y142.443
G1 F1380 X122.047 Y132.157 E1185.08747
G0 F10500 X122.047 Y132.864
G1 F1380 X112.376 Y142.535 E1185.49481
G0 F10500 X113.083 Y142.535
G1 F1380 X122.047 Y133.571 E1185.87238
G0 F10500 X122.047 Y134.278
G1 F1380 X113.790 Y142.535 E1186.22016
G0 F10500 X114.497 Y142.535
G1 F1380 X122.047 Y134.985 E1186.53817
G0 F10500 X122.047 Y135.693
G1 F1380 X115.204 Y142.535 E1186.82637
G0 F10500 X115.911 Y142.535
G1 F1380 X122.047 Y136.400 E1187.08480
G0 F10500 X122.047 Y137.107
G1 F1380 X116.618 Y142.535 E1187.31345
G0 F10500 X117.325 Y142.535
G1 F1380 X122.047 Y137.814 E1187.51232
G0 F10500 X122.047 Y138.521
G1 F1380 X118.033 Y142.535 E1187.68139
G0 F10500 X118.740 Y142.535
G1 F1380 X122.047 Y139.228 E1187.82068
G0 F10500 X122.047 Y139.935
G1 F1380 X119.447 Y142.535 E1187.93019
G0 F10500 X120.154 Y142.535
G1 F1380 X122.047 Y140.642 E1188.00993
G0 F10500 X122.047 Y141.349
G1 F1380 X120.861 Y142.535 E1188.05988
G0 F10500 X121.568 Y142.535
G1 F1380 X122.047 Y142.057 E1188.08004
;LAYER:2
G1 F600 E1186.58004
G1 Z0.905
G0 F10500 X64.283 Y142.461 Z1.185
;TYPE:WALL-INNER
G1 Z1.185
G1 F600 E1188.08004
G1 F1440 X53.707 Y142.461 E1188.39502
G1 X53.557 Y141.846 E1188.41388
G1 X52.613 Y140.820 E1188.45540
G1 X51.393 Y140.457 E1188.49331
G1 X26.695 Y140.457 E1189.22890
G1 X26.695 Y142.461 E1189.28859
G1 X23.456 Y142.461 E1189.38506
G1 X23.305 Y141.846 E1189.40392
G1 X22.361 Y140.819 E1189.44546
G1 X21.032 Y140.431 E1189.48670
G1 X19.704 Y140.819 E1189.52790
G1 X18.759 Y141.846 E1189.56947
G1 X18.481 Y142.983 E1189.60433
G1 X17.105 Y146.461 E1189.71573
G1 X12.124 Y146.461 E1189.86408
G1 X10.782 Y143.069 E1189.97273
G1 X10.782 Y113.798 E1190.84451
G1 X11.865 Y113.973 E1190.87719
G1 X12.586 Y113.858 E1190.89893
G1 X13.886 Y113.647 E1190.93816
G1 X15.795 Y112.700 E1191.00163
G1 X17.513 Y111.197 E1191.06961
G1 X18.990 Y109.214 E1191.14326
G1 X20.186 Y106.831 E1191.22267
G1 X21.065 Y104.136 E1191.30709
G1 X21.604 Y101.228 E1191.39518
G1 X21.785 Y98.210 E1191.48523
G1 X21.604 Y95.193 E1191.57524
G1 X21.065 Y92.285 E1191.66333
G1 X20.186 Y89.590 E1191.74776
G1 X18.990 Y87.207 E1191.82717
G1 X17.513 Y85.224 E1191.90081
G1 X15.795 Y83.721 E1191.96880
G1 X13.886 Y82.774 E1192.03227
G1 X11.866 Y82.448 E1192.09321
G1 X10.782 Y82.623 E1192.12591
G1 X10.782 Y53.961 E1192.97956
G1 X18.609 Y53.961 E1193.21267
G1 X18.759 Y54.576 E1193.23153
G1 X19.704 Y55.603 E1193.27309
G1 X21.032 Y55.991 E1193.31430
G1 X22.361 Y55.603 E1193.35554
G1 X23.305 Y54.576 E1193.39708
G1 X23.456 Y53.961 E1193.41594
G1 X26.695 Y53.961 E1193.51241
G1 X26.695 Y55.965 E1193.57210
G1 X51.393 Y55.965 E1194.30769
G1 X52.613 Y55.602 E1194.34560
G1 X53.557 Y54.576 E1194.38712
G1 X53.707 Y53.961 E1194.40597
G1 X64.283 Y53.961 E1194.72096
G1 X64.283 Y142.461 E1197.35679
G0 F10500 X51.385 Y140.510
G0 X26.804 Y140.566
G0 X21.032 Y140.491
G0 X19.736 Y140.870
G0 X18.811 Y141.874
G0 X18.149 Y142.461
G1 F1440 X11.080 Y142.461 E1197.56733
G1 X12.464 Y145.961 E1197.67943
G1 X16.765 Y145.961 E1197.80753
G1 X18.149 Y142.461 E1197.91962
G0 F10500 X17.414 Y142.961
;TYPE:WALL-OUTER
G1 F1320 X11.815 Y142.961 E1198.08638
G1 X12.804 Y145.461 E1198.16645
G1 X16.425 Y145.461 E1198.27430
G1 X17.414 Y142.961 E1198.35437
G0 F10500 X17.739 Y143.088
G0 X18.875 Y142.007
G0 X19.214 Y142.090
G1 F1320 X18.957 Y143.140 E1198.38657
G1 X17.445 Y146.961 E1198.50895
G1 X11.784 Y146.961 E1198.67756
G1 X10.282 Y143.165 E1198.79914
G1 X10.282 Y113.211 E1199.69128
G1 X11.865 Y113.466 E1199.73903
G1 X13.731 Y113.166 E1199.79532
G1 X15.514 Y112.281 E1199.85461
G1 X17.144 Y110.856 E1199.91909
G1 X18.563 Y108.951 E1199.98984
G1 X19.722 Y106.640 E1200.06684
G1 X20.580 Y104.013 E1200.14914
G1 X21.107 Y101.167 E1200.23535
G1 X21.284 Y98.210 E1200.32358
G1 X21.107 Y95.254 E1200.41177
G1 X20.580 Y92.408 E1200.49798
G1 X19.722 Y89.781 E1200.58029
G1 X18.563 Y87.470 E1200.65729
G1 X17.144 Y85.565 E1200.72803
G1 X15.514 Y84.140 E1200.79252
G1 X13.731 Y83.255 E1200.85180
G1 X11.866 Y82.955 E1200.90806
G1 X10.282 Y83.210 E1200.95585
G1 X10.282 Y53.461 E1201.84187
G1 X19.001 Y53.461 E1202.10155
G1 X19.214 Y54.332 E1202.12826
G1 X19.978 Y55.162 E1202.16186
G1 X21.032 Y55.470 E1202.19456
G1 X22.087 Y55.162 E1202.22730
G1 X22.850 Y54.332 E1202.26087
G1 X23.065 Y53.461 E1202.28759
G1 X27.195 Y53.461 E1202.41060
G1 X27.195 Y55.465 E1202.47029
G1 X51.320 Y55.465 E1203.18881
G1 X52.338 Y55.162 E1203.22044
G1 X53.102 Y54.332 E1203.25404
G1 X53.315 Y53.461 E1203.28075
G1 X64.783 Y53.461 E1203.62230
G1 X64.783 Y142.961 E1206.28792
G1 X53.315 Y142.961 E1206.62947
G1 X53.102 Y142.090 E1206.65618
G1 X52.338 Y141.260 E1206.68978
G1 X51.320 Y140.957 E1206.72141
G1 X27.195 Y140.957 E1207.43993
G1 X27.195 Y142.961 E1207.49962
G1 X23.065 Y142.961 E1207.62263
G1 X22.850 Y142.090 E1207.64935
G1 X22.087 Y141.260 E1207.68292
G1 X21.032 Y140.952 E1207.71566
G1 X19.978 Y141.260 E1207.74836
G1 X19.214 Y142.090 E1207.78196
G0 F10500 X18.554 Y141.944
;TYPE:SKIN
G1 F1920 X10.956 Y134.346 E1208.10199
G0 F10500 X10.956 Y135.053
G1 F1920 X18.188 Y142.285 E1208.40660
G0 F10500 X17.481 Y142.285
G1 F1920 X10.956 Y135.760 E1208.68143
G0 F10500 X10.956 Y136.468
G1 F1920 X16.773 Y142.285 E1208.92645
G0 F10500 X16.066 Y142.285
G1 F1920 X10.956 Y137.175 E1209.14168
G0 F10500 X10.956 Y137.882
G1 F1920 X15.359 Y142.285 E1209.32714
G0 F10500 X14.652 Y142.285
G1 F1920 X10.956 Y138.589 E1209.48281
G0 F10500 X10.956 Y139.296
G1 F1920 X13.945 Y142.285 E1209.60871
G0 F10500 X13.238 Y142.285
G1 F1920 X10.956 Y140.003 E1209.70483
G0 F10500 X10.956 Y140.710
G1 F1920 X12.531 Y142.285 E1209.77116
G0 F10500 X11.824 Y142.285
G1 F1920 X10.956 Y141.417 E1209.80772
G0 F10500 X10.956 Y142.124
G1 F1920 X11.117 Y142.285 E1209.81451
G0 F10500 X18.828 Y141.511
G1 F1920 X10.956 Y133.639 E1210.14608
G0 F10500 X10.956 Y132.932
G1 F1920 X19.167 Y141.143 E1210.49192
G0 F10500 X19.506 Y140.775
G1 F1920 X10.956 Y132.225 E1210.85205
G0 F10500 X10.956 Y131.518
G1 F1920 X19.990 Y140.552 E1211.23256
G0 F10500 X20.537 Y140.392
G1 F1920 X10.956 Y130.811 E1211.63611
G0 F10500 X10.956 Y130.104
G1 F1920 X21.129 Y140.276 E1212.06458
G0 F10500 X22.127 Y140.567
G1 F1920 X10.956 Y129.397 E1212.53508
G0 F10500 X10.956 Y128.689
G1 F1920 X24.551 Y142.284 E1213.10771
G0 F10500 X23.844 Y142.284
G1 F1920 X23.511 Y141.951 E1213.12173
G0 F10500 X25.258 Y142.284
G1 F1920 X10.956 Y127.982 E1213.72413
G0 F10500 X10.956 Y127.275
G1 F1920 X25.965 Y142.284 E1214.35631
G0 F10500 X26.520 Y142.131
G1 F1920 X10.956 Y126.568 E1215.01185
G0 F10500 X10.956 Y125.861
G1 F1920 X26.520 Y141.424 E1215.66738
G0 F10500 X26.520 Y140.717
G1 F1920 X10.956 Y125.154 E1216.32292
G0 F10500 X10.956 Y124.447
G1 F1920 X26.790 Y140.280 E1216.98983
G0 F10500 X27.497 Y140.280
G1 F1920 X10.956 Y123.740 E1217.68651
G0 F10500 X10.956 Y123.033
G1 F1920 X28.204 Y140.280 E1218.41298
G0 F10500 X28.911 Y140.280
G1 F1920 X10.956 Y122.325 E1219.16925
G0 F10500 X10.956 Y121.618
G1 F1920 X29.618 Y140.280 E1219.95529
G0 F10500 X30.325 Y140.280
G1 F1920 X10.956 Y120.911 E1220.77111
G0 F10500 X10.956 Y120.204
G1 F1920 X31.032 Y140.280 E1221.61672
G0 F10500 X31.739 Y140.280
G1 F1920 X10.956 Y119.497 E1222.49210
G0 F10500 X10.956 Y118.790
G1 F1920 X32.447 Y140.280 E1223.39728
G0 F10500 X33.154 Y140.280
G1 F1920 X10.956 Y118.083 E1224.33224
G0 F10500 X10.956 Y117.376
G1 F1920 X33.861 Y140.280 E1225.29698
G0 F10500 X34.568 Y140.280
G1 F1920 X10.956 Y116.669 E1226.29150
G0 F10500 X10.956 Y115.961
G1 F1920 X35.275 Y140.280 E1227.31581
G0 F10500 X35.982 Y140.280
G1 F1920 X10.956 Y115.254 E1228.36991
G0 F10500 X10.956 Y114.547
G1 F1920 X36.689 Y140.280 E1229.45379
G0 F10500 X37.396 Y140.280
G1 F1920 X11.151 Y114.035 E1230.55923
G0 F10500 X11.957 Y114.134
G1 F1920 X38.103 Y140.280 E1231.66050
G0 F10500 X38.810 Y140.280
G1 F1920 X12.567 Y114.037 E1232.76585
G0 F10500 X13.176 Y113.938
G1 F1920 X39.518 Y140.280 E1233.87538
G0 F10500 X40.225 Y140.280
G1 F1920 X13.785 Y113.840 E1234.98904
G0 F10500 X14.292 Y113.641
G1 F1920 X40.932 Y140.280 E1236.11109
G0 F10500 X41.639 Y140.280
G1 F1920 X14.765 Y113.406 E1237.24303
G0 F10500 X15.238 Y113.172
G1 F1920 X42.346 Y140.280 E1238.38482
G0 F10500 X43.053 Y140.280
G1 F1920 X15.710 Y112.937 E1239.53651
G0 F10500 X16.124 Y112.644
G1 F1920 X43.760 Y140.280 E1240.70054
G0 F10500 X44.467 Y140.280
G1 F1920 X16.501 Y112.314 E1241.87847
G0 F10500 X16.879 Y111.985
G1 F1920 X45.174 Y140.280 E1243.07025
G0 F10500 X45.882 Y140.280
G1 F1920 X17.256 Y111.654 E1244.27598
G0 F10500 X17.633 Y111.325
G1 F1920 X46.589 Y140.280 E1245.49559
G0 F10500 X47.296 Y140.280
G1 F1920 X17.936 Y110.921 E1246.73221
G0 F10500 X18.238 Y110.515
G1 F1920 X48.003 Y140.280 E1247.98592
G0 F10500 X48.710 Y140.280
G1 F1920 X18.540 Y110.110 E1249.25668
G0 F10500 X18.841 Y109.704
G1 F1920 X49.417 Y140.280 E1250.54454
G0 F10500 X50.124 Y140.280
G1 F1920 X19.142 Y109.298 E1251.84951
G0 F10500 X19.378 Y108.827
G1 F1920 X50.831 Y140.280 E1253.17431
G0 F10500 X51.590 Y140.332
G1 F1920 X19.615 Y108.357 E1254.52110
G0 F10500 X19.851 Y107.886
G1 F1920 X52.596 Y140.630 E1255.90030
G0 F10500 X53.618 Y141.653
G1 F1920 X54.250 Y142.285 E1255.92692
G0 F10500 X54.957 Y142.285
G1 F1920 X20.087 Y107.415 E1257.39564
G0 F10500 X20.323 Y106.944
G1 F1920 X55.664 Y142.285 E1258.88421
G0 F10500 X56.371 Y142.285
G1 F1920 X20.504 Y106.418 E1260.39493
G0 F10500 X20.678 Y105.884
G1 F1920 X57.079 Y142.285 E1261.92814
G0 F10500 X57.786 Y142.285
G1 F1920 X20.852 Y105.351 E1263.48380
G0 F10500 X21.026 Y104.818
G1 F1920 X58.493 Y142.285 E1265.06192
G0 F10500 X59.200 Y142.285
G1 F1920 X21.199 Y104.284 E1266.66252
G0 F10500 X21.322 Y103.700
G1 F1920 X59.907 Y142.285 E1268.28772
G0 F10500 X60.614 Y142.285
G1 F1920 X21.433 Y103.103 E1269.93805
G0 F10500 X21.544 Y102.507
G1 F1920 X61.321 Y142.285 E1271.61348
G0 F10500 X62.028 Y142.285
G1 F1920 X21.654 Y101.911 E1273.31404
G0 F10500 X21.765 Y101.314
G1 F1920 X62.735 Y142.285 E1275.03972
G0 F10500 X63.443 Y142.285
G1 F1920 X21.813 Y100.655 E1276.79318
G0 F10500 X21.853 Y99.988
G1 F1920 X64.107 Y142.243 E1278.57294
G0 F10500 X64.107 Y141.535
G1 F1920 X21.892 Y99.320 E1280.35104
G0 F10500 X21.933 Y98.654
G1 F1920 X64.107 Y140.828 E1282.12741
G0 F10500 X64.107 Y140.121
G1 F1920 X21.945 Y97.959 E1283.90327
G0 F10500 X21.899 Y97.206
G1 F1920 X64.107 Y139.414 E1285.68108
G0 F10500 X64.107 Y138.707
G1 F1920 X21.855 Y96.455 E1287.46073
G0 F10500 X21.810 Y95.702
G1 F1920 X64.107 Y138.000 E1289.24231
G0 F10500 X64.107 Y137.293
G1 F1920 X21.730 Y94.915 E1291.02725
G0 F10500 X21.569 Y94.048
G1 F1920 X64.107 Y136.586 E1292.81895
G0 F10500 X64.107 Y135.879
G1 F1920 X21.409 Y93.180 E1294.61742
G0 F10500 X21.248 Y92.312
G1 F1920 X64.107 Y135.171 E1296.42264
G0 F10500 X64.107 Y134.464
G1 F1920 X20.921 Y91.279 E1298.24162
G0 F10500 X20.578 Y90.228
G1 F1920 X64.107 Y133.757 E1300.07506
G0 F10500 X64.107 Y133.050
G1 F1920 X20.113 Y89.056 E1301.92809
G0 F10500 X19.402 Y87.638
G1 F1920 X64.107 Y132.343 E1303.81107
G0 F10500 X64.107 Y131.636
G1 F1920 X17.838 Y85.367 E1305.75992
G0 F10500 X17.096 Y84.625
G1 F1920 X10.956 Y78.485 E1306.01854
G0 F10500 X10.956 Y79.192
G1 F1920 X14.788 Y83.024 E1306.17994
G0 F10500 X13.606 Y82.549
G1 F1920 X10.956 Y79.899 E1306.29156
G0 F10500 X10.956 Y77.778
G1 F1920 X64.107 Y130.929 E1308.53028
G0 F10500 X64.107 Y130.222
G1 F1920 X10.956 Y77.071 E1310.76901
G0 F10500 X10.956 Y76.363
G1 F1920 X64.107 Y129.515 E1313.00775
G0 F10500 X64.107 Y128.807
G1 F1920 X10.956 Y75.656 E1315.24647
G0 F10500 X10.956 Y74.949
G1 F1920 X64.107 Y128.100 E1317.48520
G0 F10500 X64.107 Y127.393
G1 F1920 X10.956 Y74.242 E1319.72392
G0 F10500 X10.956 Y73.535
G1 F1920 X64.107 Y126.686 E1321.96265
G0 F10500 X64.107 Y125.979
G1 F1920 X10.956 Y72.828 E1324.20137
G0 F10500 X10.956 Y72.121
G1 F1920 X64.107 Y125.272 E1326.44009
G0 F10500 X64.107 Y124.565
G1 F1920 X10.956 Y71.414 E1328.67882
G0 F10500 X10.956 Y70.707
G1 F1920 X64.107 Y123.858 E1330.91754
G0 F10500 X64.107 Y123.151
G1 F1920 X10.956 Y70.000 E1333.15626
G0 F10500 X10.956 Y69.292
G1 F1920 X64.107 Y122.444 E1335.39501
G0 F10500 X64.107 Y121.736
G1 F1920 X10.956 Y68.585 E1337.63373
G0 F10500 X10.956 Y67.878
G1 F1920 X64.107 Y121.029 E1339.87245
G0 F10500 X64.107 Y120.322
G1 F1920 X10.956 Y67.171 E1342.11118
G0 F10500 X10.956 Y66.464
G1 F1920 X64.107 Y119.615 E1344.34990
G0 F10500 X64.107 Y118.908
G1 F1920 X10.956 Y65.757 E1346.58862
G0 F10500 X10.956 Y65.050
G1 F1920 X64.107 Y118.201 E1348.82735
G0 F10500 X64.107 Y117.494
G1 F1920 X10.956 Y64.343 E1351.06607
G0 F10500 X10.956 Y63.636
G1 F1920 X64.107 Y116.787 E1353.30479
G0 F10500 X64.107 Y116.080
G1 F1920 X10.956 Y62.928 E1355.54354
G0 F10500 X10.956 Y62.221
G1 F1920 X64.107 Y115.372 E1357.78226
G0 F10500 X64.107 Y114.665
G1 F1920 X10.956 Y61.514 E1360.02098
G0 F10500 X10.956 Y60.807
G1 F1920 X64.107 Y113.958 E1362.25971
G0 F10500 X64.107 Y113.251
G1 F1920 X10.956 Y60.100 E1364.49843
G0 F10500 X10.956 Y59.393
G1 F1920 X64.107 Y112.544 E1366.73716
G0 F10500 X64.107 Y111.837
G1 F1920 X10.956 Y58.686 E1368.97588
G0 F10500 X10.956 Y57.979
G1 F1920 X64.107 Y111.130 E1371.21460
G0 F10500 X64.107 Y110.423
G1 F1920 X10.956 Y57.272 E1373.45333
G0 F10500 X10.956 Y56.565
G1 F1920 X64.107 Y109.716 E1375.69205
G0 F10500 X64.107 Y109.008
G1 F1920 X10.956 Y55.857 E1377.93077
G0 F10500 X10.956 Y55.150
G1 F1920 X64.107 Y108.301 E1380.16950
G0 F10500 X64.107 Y107.594
G1 F1920 X10.956 Y54.443 E1382.40822
G0 F10500 X11.355 Y54.135
G1 F1920 X64.107 Y106.887 E1384.63014
G0 F10500 X64.107 Y106.180
G1 F1920 X12.062 Y54.135 E1386.82227
G0 F10500 X12.769 Y54.135
G1 F1920 X64.107 Y105.473 E1388.98463
G0 F10500 X64.107 Y104.766
G1 F1920 X13.476 Y54.135 E1391.11722
G0 F10500 X14.183 Y54.135
G1 F1920 X64.107 Y104.059 E1393.22002
G0 F10500 X64.107 Y103.352
G1 F1920 X14.890 Y54.135 E1395.29304
G0 F10500 X15.598 Y54.135
G1 F1920 X64.107 Y102.645 E1397.33626
G0 F10500 X64.107 Y101.937
G1 F1920 X16.305 Y54.135 E1399.34969
G0 F10500 X17.012 Y54.135
G1 F1920 X64.107 Y101.230 E1401.33333
G0 F10500 X64.107 Y100.523
G1 F1920 X17.719 Y54.135 E1403.28720
G0 F10500 X20.229 Y55.938
G1 F1920 X64.107 Y99.816 E1405.13534
G0 F10500 X64.107 Y99.109
G1 F1920 X21.139 Y56.141 E1406.94516
G0 F10500 X21.686 Y55.981
G1 F1920 X64.107 Y98.402 E1408.73193
G0 F10500 X64.107 Y97.695
G1 F1920 X22.234 Y55.821 E1410.49564
G0 F10500 X22.657 Y55.537
G1 F1920 X64.107 Y96.988 E1412.24154
G0 F10500 X64.107 Y96.281
G1 F1920 X22.995 Y55.169 E1413.97318
G0 F10500 X23.334 Y54.800
G1 F1920 X64.107 Y95.573 E1415.69054
G0 F10500 X64.107 Y94.866
G1 F1920 X23.549 Y54.308 E1417.39885
G0 F10500 X24.083 Y54.135
G1 F1920 X64.107 Y94.159 E1419.08466
G0 F10500 X64.107 Y93.452
G1 F1920 X26.794 Y56.139 E1420.65629
G0 F10500 X26.520 Y55.864
G1 F1920 X24.790 Y54.135 E1420.72914
G0 F10500 X25.497 Y54.135
G1 F1920 X26.520 Y55.157 E1420.77220
G0 F10500 X26.520 Y54.450
G1 F1920 X26.204 Y54.135 E1420.78549
G0 F10500 X26.804 Y55.856
G0 X27.501 Y56.139
G1 F1920 X64.107 Y92.745 E1422.32734
G0 F10500 X64.107 Y92.038
G1 F1920 X28.208 Y56.139 E1423.83941
G0 F10500 X28.915 Y56.139
G1 F1920 X64.107 Y91.331 E1425.32170
G0 F10500 X64.107 Y90.624
G1 F1920 X29.622 Y56.139 E1426.77421
G0 F10500 X30.329 Y56.139
G1 F1920 X64.107 Y89.917 E1428.19694
G0 F10500 X64.107 Y89.210
G1 F1920 X31.037 Y56.139 E1429.58987
G0 F10500 X31.744 Y56.139
G1 F1920 X64.107 Y88.502 E1430.95300
G0 F10500 X64.107 Y87.795
G1 F1920 X32.451 Y56.139 E1432.28635
G0 F10500 X33.158 Y56.139
G1 F1920 X64.107 Y87.088 E1433.58993
G0 F10500 X64.107 Y86.381
G1 F1920 X33.865 Y56.139 E1434.86372
G0 F10500 X34.572 Y56.139
G1 F1920 X64.107 Y85.674 E1436.10774
G0 F10500 X64.107 Y84.967
G1 F1920 X35.279 Y56.139 E1437.32198
G0 F10500 X35.986 Y56.139
G1 F1920 X64.107 Y84.260 E1438.50643
G0 F10500 X64.107 Y83.553
G1 F1920 X36.693 Y56.139 E1439.66111
G0 F10500 X37.400 Y56.139
G1 F1920 X64.107 Y82.846 E1440.78601
G0 F10500 X64.107 Y82.138
G1 F1920 X38.108 Y56.139 E1441.88109
G0 F10500 X38.815 Y56.139
G1 F1920 X64.107 Y81.431 E1442.94639
G0 F10500 X64.107 Y80.724
G1 F1920 X39.522 Y56.139 E1443.98192
G0 F10500 X40.229 Y56.139
G1 F1920 X64.107 Y80.017 E1444.98766
G0 F10500 X64.107 Y79.310
G1 F1920 X40.936 Y56.139 E1445.96362
G0 F10500 X41.643 Y56.139
G1 F1920 X64.107 Y78.603 E1446.90981
G0 F10500 X64.107 Y77.896
G1 F1920 X42.350 Y56.139 E1447.82621
G0 F10500 X43.057 Y56.139
G1 F1920 X64.107 Y77.189 E1448.71284
G0 F10500 X64.107 Y76.482
G1 F1920 X43.764 Y56.139 E1449.56969
G0 F10500 X44.472 Y56.139
G1 F1920 X64.107 Y75.774 E1450.39672
G0 F10500 X64.107 Y75.067
G1 F1920 X45.179 Y56.139 E1451.19396
G0 F10500 X45.886 Y56.139
G1 F1920 X64.107 Y74.360 E1451.96143
G0 F10500 X64.107 Y73.653
G1 F1920 X46.593 Y56.139 E1452.69913
G0 F10500 X47.300 Y56.139
G1 F1920 X64.107 Y72.946 E1453.40704
G0 F10500 X64.107 Y72.239
G1 F1920 X48.007 Y56.139 E1454.08517
G0 F10500 X48.714 Y56.139
G1 F1920 X64.107 Y71.532 E1454.73352
G0 F10500 X64.107 Y70.825
G1 F1920 X49.421 Y56.139 E1455.35210
G0 F10500 X50.128 Y56.139
G1 F1920 X64.107 Y70.118 E1455.94090
G0 F10500 X64.107 Y69.411
G1 F1920 X50.836 Y56.139 E1456.49989
G0 F10500 X51.514 Y56.110
G1 F1920 X64.107 Y68.703 E1457.03031
G0 F10500 X64.107 Y67.996
G1 F1920 X52.059 Y55.948 E1457.53777
G0 F10500 X52.604 Y55.786
G1 F1920 X64.107 Y67.289 E1458.02228
G0 F10500 X64.107 Y66.582
G1 F1920 X52.982 Y55.457 E1458.49087
G0 F10500 X53.321 Y55.089
G1 F1920 X64.107 Y65.875 E1458.94517
G0 F10500 X64.107 Y65.168
G1 F1920 X53.660 Y54.720 E1459.38522
G0 F10500 X53.832 Y54.186
G1 F1920 X64.107 Y64.461 E1459.81801
G0 F10500 X64.107 Y63.754
G1 F1920 X54.489 Y54.136 E1460.22312
G0 F10500 X55.196 Y54.136
G1 F1920 X64.107 Y63.047 E1460.59845
G0 F10500 X64.107 Y62.339
G1 F1920 X55.903 Y54.136 E1460.94398
G0 F10500 X56.610 Y54.136
G1 F1920 X64.107 Y61.632 E1461.25973
G0 F10500 X64.107 Y60.925
G1 F1920 X57.318 Y54.136 E1461.54569
G0 F10500 X58.025 Y54.136
G1 F1920 X64.107 Y60.218 E1461.80186
G0 F10500 X64.107 Y59.511
G1 F1920 X58.732 Y54.136 E1462.02826
G0 F10500 X59.439 Y54.136
G1 F1920 X64.107 Y58.804 E1462.22487
G0 F10500 X64.107 Y58.097
G1 F1920 X60.146 Y54.136 E1462.39171
G0 F10500 X60.853 Y54.136
G1 F1920 X64.107 Y57.390 E1462.52877
G0 F10500 X64.107 Y56.683
G1 F1920 X61.560 Y54.136 E1462.63605
G0 F10500 X62.267 Y54.136
G1 F1920 X64.107 Y55.975 E1462.71353
G0 F10500 X64.107 Y55.268
G1 F1920 X62.974 Y54.136 E1462.76123
G0 F10500 X63.682 Y54.136
G1 F1920 X64.107 Y54.561 E1462.77913
G0 F10500 X12.763 Y82.414
G1 F1920 X10.956 Y80.606 E1462.85526
G0 F10500 X10.956 Y81.313
G1 F1920 X11.921 Y82.278 E1462.89591
G0 F10500 X11.296 Y82.360
G1 F1920 X10.956 Y82.020 E1462.91023
G1 F600 E1461.41023
G1 Z1.285
G0 F10500 X68.723 Y82.873
;TYPE:WALL-INNER
G1 Z1.185
G1 F600 E1462.91023
G1 F1440 X68.723 Y54.211 E1463.76388
G1 X76.550 Y54.211 E1463.99699
G1 X76.700 Y54.826 E1464.01585
G1 X77.645 Y55.853 E1464.05741
G1 X78.973 Y56.241 E1464.09862
G1 X80.302 Y55.853 E1464.13985
G1 X81.245 Y54.826 E1464.18138
G1 X81.396 Y54.211 E1464.20024
G1 X84.635 Y54.211 E1464.29671
G1 X84.635 Y56.215 E1464.35640
G1 X109.333 Y56.215 E1465.09199
G1 X110.553 Y55.852 E1465.12990
G1 X111.497 Y54.826 E1465.17142
G1 X111.647 Y54.211 E1465.19027
G1 X122.223 Y54.211 E1465.50526
G1 X122.223 Y142.711 E1468.14109
G1 X111.647 Y142.711 E1468.45608
G1 X111.497 Y142.096 E1468.47493
G1 X110.553 Y141.070 E1468.51646
G1 X109.333 Y140.707 E1468.55437
G1 X84.635 Y140.707 E1469.28996
G1 X84.635 Y142.711 E1469.34964
G1 X81.396 Y142.711 E1469.44611
G1 X81.245 Y142.096 E1469.46497
G1 X80.302 Y141.069 E1469.50650
G1 X78.973 Y140.681 E1469.54773
G1 X77.645 Y141.069 E1469.58894
G1 X76.700 Y142.096 E1469.63051
G1 X76.422 Y143.233 E1469.66537
G1 X75.046 Y146.711 E1469.77677
G1 X70.065 Y146.711 E1469.92512
G1 X68.723 Y143.319 E1470.03376
G1 X68.723 Y114.048 E1470.90555
G1 X69.806 Y114.223 E1470.93823
G1 X70.527 Y114.108 E1470.95997
G1 X71.827 Y113.897 E1470.99920
G1 X73.736 Y112.950 E1471.06266
G1 X75.454 Y111.447 E1471.13065
G1 X76.931 Y109.464 E1471.20429
G1 X78.127 Y107.081 E1471.28370
G1 X79.006 Y104.386 E1471.36813
G1 X79.545 Y101.478 E1471.45622
G1 X79.726 Y98.460 E1471.54626
G1 X79.545 Y95.443 E1471.63628
G1 X79.006 Y92.535 E1471.72437
G1 X78.127 Y89.840 E1471.80879
G1 X76.931 Y87.457 E1471.88821
G1 X75.454 Y85.474 E1471.96185
G1 X73.736 Y83.971 E1472.02983
G1 X71.827 Y83.024 E1472.09330
G1 X69.807 Y82.698 E1472.15424
G1 X68.723 Y82.873 E1472.18695
G0 F10500 X71.809 Y83.074
G0 X73.706 Y84.015
G0 X75.415 Y85.510
G0 X76.887 Y87.483
G0 X78.080 Y89.859
G0 X79.494 Y95.449
G0 X79.494 Y101.472
G0 X78.080 Y107.062
G0 X76.887 Y109.437
G0 X75.415 Y111.411
G0 X73.706 Y112.906
G0 X71.811 Y113.846
G0 X69.806 Y114.169
G0 X69.021 Y142.711
G1 F1440 X70.405 Y146.211 E1472.29904
G1 X74.706 Y146.211 E1472.42714
G1 X76.090 Y142.711 E1472.53924
G1 X69.021 Y142.711 E1472.74977
G0 F10500 X69.756 Y143.211
;TYPE:WALL-OUTER
G1 F1320 X70.745 Y145.711 E1472.82985
G1 X74.366 Y145.711 E1472.93769
G1 X75.355 Y143.211 E1473.01777
G1 X69.756 Y143.211 E1473.18452
G0 F10500 X69.756 Y142.861
G0 X69.224 Y142.849
G0 X68.573 Y143.355
G0 X68.223 Y143.414
G1 F1320 X68.223 Y113.461 E1474.07663
G1 X69.806 Y113.716 E1474.12438
G1 X71.672 Y113.416 E1474.18067
G1 X73.455 Y112.531 E1474.23995
G1 X75.085 Y111.106 E1474.30444
G1 X76.504 Y109.201 E1474.37519
G1 X77.663 Y106.890 E1474.45219
G1 X78.521 Y104.263 E1474.53449
G1 X79.048 Y101.417 E1474.62070
G1 X79.225 Y98.460 E1474.70893
G1 X79.048 Y95.504 E1474.79712
G1 X78.521 Y92.658 E1474.88333
G1 X77.663 Y90.031 E1474.96564
G1 X76.504 Y87.720 E1475.04264
G1 X75.085 Y85.815 E1475.11338
G1 X73.455 Y84.390 E1475.17787
G1 X71.672 Y83.505 E1475.23715
G1 X69.807 Y83.205 E1475.29341
G1 X68.223 Y83.460 E1475.34120
G1 X68.223 Y53.711 E1476.22722
G1 X76.942 Y53.711 E1476.48690
G1 X77.155 Y54.582 E1476.51361
G1 X77.919 Y55.412 E1476.54721
G1 X78.973 Y55.720 E1476.57991
G1 X80.028 Y55.412 E1476.61265
G1 X80.790 Y54.582 E1476.64620
G1 X81.005 Y53.711 E1476.67292
G1 X85.135 Y53.711 E1476.79593
G1 X85.135 Y55.715 E1476.85562
G1 X109.260 Y55.715 E1477.57414
G1 X110.278 Y55.412 E1477.60577
G1 X111.042 Y54.582 E1477.63937
G1 X111.255 Y53.711 E1477.66608
G1 X122.723 Y53.711 E1478.00763
G1 X122.723 Y143.211 E1480.67325
G1 X111.255 Y143.211 E1481.01480
G1 X111.042 Y142.340 E1481.04151
G1 X110.278 Y141.510 E1481.07511
G1 X109.260 Y141.207 E1481.10674
G1 X85.135 Y141.207 E1481.82526
G1 X85.135 Y143.211 E1481.88495
G1 X81.005 Y143.211 E1482.00796
G1 X80.790 Y142.340 E1482.03468
G1 X80.028 Y141.510 E1482.06823
G1 X78.973 Y141.202 E1482.10097
G1 X77.919 Y141.510 E1482.13367
G1 X77.155 Y142.340 E1482.16727
G1 X76.898 Y143.390 E1482.19947
G1 X75.386 Y147.211 E1482.32185
G1 X69.725 Y147.211 E1482.49046
G1 X68.223 Y143.414 E1482.61207
G0 F10500 X68.951 Y143.197
;TYPE:FILL
G1 F1620 X69.073 Y143.319 E1482.61721
G0 F10500 X70.000 Y145.666
G1 F1620 X69.885 Y145.782 E1482.62208
G0 F10500 X69.224 Y142.849
G0 X75.887 Y142.849
G0 X76.067 Y143.242
G1 F1620 X76.184 Y143.359 E1482.62700
G0 F10500 X76.414 Y142.528
;TYPE:SKIN
G1 F1920 X68.898 Y135.012 E1482.94358
G0 F10500 X68.898 Y135.719
G1 F1920 X75.713 Y142.535 E1483.23065
G0 F10500 X75.006 Y142.535
G1 F1920 X68.898 Y136.427 E1483.48792
G0 F10500 X68.898 Y137.134
G1 F1920 X74.299 Y142.535 E1483.71541
G0 F10500 X73.592 Y142.535
G1 F1920 X68.898 Y137.841 E1483.91312
G0 F10500 X68.898 Y138.548
G1 F1920 X72.885 Y142.535 E1484.08105
G0 F10500 X72.177 Y142.535
G1 F1920 X68.898 Y139.255 E1484.21918
G0 F10500 X68.898 Y139.962
G1 F1920 X71.470 Y142.535 E1484.32754
G0 F10500 X70.763 Y142.535
G1 F1920 X68.898 Y140.669 E1484.40611
G0 F10500 X68.898 Y141.376
G1 F1920 X70.056 Y142.535 E1484.45491
G0 F10500 X69.349 Y142.535
G1 F1920 X68.898 Y142.083 E1484.47393
G0 F10500 X76.570 Y141.977
G1 F1920 X68.898 Y134.305 E1484.79707
G0 F10500 X68.898 Y133.598
G1 F1920 X76.909 Y141.609 E1485.13449
G0 F10500 X77.248 Y141.241
G1 F1920 X68.898 Y132.891 E1485.48620
G0 F10500 X68.898 Y132.184
G1 F1920 X77.609 Y140.895 E1485.85310
G0 F10500 X78.157 Y140.736
G1 F1920 X68.898 Y131.477 E1486.24309
G0 F10500 X68.898 Y130.770
G1 F1920 X78.704 Y140.576 E1486.65612
G0 F10500 X79.481 Y140.646
G1 F1920 X68.898 Y130.063 E1487.10188
G0 F10500 X68.898 Y129.355
G1 F1920 X82.077 Y142.535 E1487.65700
G0 F10500 X82.784 Y142.535
G1 F1920 X68.898 Y128.648 E1488.24190
G0 F10500 X68.898 Y127.941
G1 F1920 X83.491 Y142.535 E1488.85658
G0 F10500 X84.198 Y142.535
G1 F1920 X68.898 Y127.234 E1489.50104
G0 F10500 X68.898 Y126.527
G1 F1920 X84.460 Y142.089 E1490.15651
G0 F10500 X84.460 Y141.382
G1 F1920 X68.898 Y125.820 E1490.81198
G0 F10500 X68.898 Y125.113
G1 F1920 X84.460 Y140.675 E1491.46746
G0 F10500 X85.023 Y140.531
G1 F1920 X68.898 Y124.406 E1492.14664
G0 F10500 X68.898 Y123.699
G1 F1920 X85.730 Y140.531 E1492.85561
G0 F10500 X86.437 Y140.531
G1 F1920 X68.898 Y122.992 E1493.59435
G0 F10500 X68.898 Y122.284
G1 F1920 X87.144 Y140.531 E1494.36289
G0 F10500 X87.851 Y140.531
G1 F1920 X68.898 Y121.577 E1495.16122
G0 F10500 X68.898 Y120.870
G1 F1920 X88.558 Y140.531 E1495.98932
G0 F10500 X89.265 Y140.531
G1 F1920 X68.898 Y120.163 E1496.84720
G0 F10500 X68.898 Y119.456
G1 F1920 X89.972 Y140.531 E1497.73486
G0 F10500 X90.680 Y140.531
G1 F1920 X68.898 Y118.749 E1498.65232
G0 F10500 X68.898 Y118.042
G1 F1920 X91.387 Y140.531 E1499.59956
G0 F10500 X92.094 Y140.531
G1 F1920 X68.898 Y117.335 E1500.57657
G0 F10500 X68.898 Y116.628
G1 F1920 X92.801 Y140.531 E1501.58337
G0 F10500 X93.508 Y140.531
G1 F1920 X68.898 Y115.920 E1502.61996
G0 F10500 X68.898 Y115.213
G1 F1920 X94.215 Y140.531 E1503.68634
G0 F10500 X94.922 Y140.531
G1 F1920 X68.898 Y114.506 E1504.78249
G0 F10500 X69.439 Y114.340
G1 F1920 X95.629 Y140.531 E1505.88564
G0 F10500 X96.336 Y140.531
G1 F1920 X70.149 Y114.344 E1506.98864
G0 F10500 X70.759 Y114.246
G1 F1920 X97.044 Y140.531 E1508.09576
G0 F10500 X97.751 Y140.531
G1 F1920 X71.368 Y114.148 E1509.20702
G0 F10500 X71.956 Y114.029
G1 F1920 X98.458 Y140.531 E1510.32328
G0 F10500 X99.165 Y140.531
G1 F1920 X72.428 Y113.794 E1511.44945
G0 F10500 X72.901 Y113.559
G1 F1920 X99.872 Y140.531 E1512.58549
G0 F10500 X100.579 Y140.531
G1 F1920 X73.373 Y113.325 E1513.73140
G0 F10500 X73.843 Y113.088
G1 F1920 X101.286 Y140.531 E1514.88731
G0 F10500 X101.993 Y140.531
G1 F1920 X74.221 Y112.758 E1516.05709
G0 F10500 X74.598 Y112.428
G1 F1920 X102.700 Y140.531 E1517.24076
G0 F10500 X103.408 Y140.531
G1 F1920 X74.975 Y112.099 E1518.43834
G0 F10500 X75.352 Y111.768
G1 F1920 X104.115 Y140.531 E1519.64984
G0 F10500 X104.822 Y140.531
G1 F1920 X75.700 Y111.408 E1520.87648
G0 F10500 X76.001 Y111.003
G1 F1920 X105.529 Y140.531 E1522.12020
G0 F10500 X106.236 Y140.531
G1 F1920 X76.303 Y110.598 E1523.38098
G0 F10500 X76.605 Y110.192
G1 F1920 X106.943 Y140.531 E1524.65884
G0 F10500 X107.650 Y140.531
G1 F1920 X76.907 Y109.787 E1525.95376
G0 F10500 X77.180 Y109.354
G1 F1920 X108.357 Y140.531 E1527.26694
G0 F10500 X109.064 Y140.531
G1 F1920 X77.417 Y108.883 E1528.59993
G0 F10500 X77.653 Y108.412
G1 F1920 X109.947 Y140.706 E1529.96016
G0 F10500 X112.483 Y142.535
G1 F1920 X77.889 Y107.941 E1531.41726
G0 F10500 X78.126 Y107.471
G1 F1920 X113.190 Y142.535 E1532.89416
G0 F10500 X113.897 Y142.535
G1 F1920 X78.343 Y106.981 E1534.39170
G0 F10500 X78.517 Y106.447
G1 F1920 X114.605 Y142.535 E1535.91172
G0 F10500 X115.312 Y142.535
G1 F1920 X78.691 Y105.914 E1537.45420
G0 F10500 X78.865 Y105.382
G1 F1920 X116.019 Y142.535 E1539.01911
G0 F10500 X116.726 Y142.535
G1 F1920 X79.039 Y104.849 E1540.60647
G0 F10500 X79.199 Y104.301
G1 F1920 X117.433 Y142.535 E1542.21689
G0 F10500 X118.140 Y142.535
G1 F1920 X79.309 Y103.704 E1543.85245
G0 F10500 X79.420 Y103.108
G1 F1920 X118.847 Y142.535 E1545.51312
G0 F10500 X119.554 Y142.535
G1 F1920 X79.531 Y102.512 E1547.19889
G0 F10500 X79.641 Y101.915
G1 F1920 X120.261 Y142.535 E1548.90981
G0 F10500 X120.968 Y142.535
G1 F1920 X79.731 Y101.297 E1550.64673
G0 F10500 X79.770 Y100.630
G1 F1920 X121.676 Y142.535 E1552.41179
G0 F10500 X122.048 Y142.200
G1 F1920 X79.810 Y99.962 E1554.19086
G0 F10500 X79.850 Y99.296
G1 F1920 X122.048 Y141.493 E1555.96822
G0 F10500 X122.048 Y140.786
G1 F1920 X79.890 Y98.628 E1557.74392
G0 F10500 X79.867 Y97.898
G1 F1920 X122.048 Y140.079 E1559.52059
G0 F10500 X122.048 Y139.372
G1 F1920 X79.822 Y97.146 E1561.29915
G0 F10500 X79.777 Y96.394
G1 F1920 X122.048 Y138.665 E1563.07961
G0 F10500 X122.048 Y137.957
G1 F1920 X79.732 Y95.642 E1564.86194
G0 F10500 X79.604 Y94.807
G1 F1920 X122.048 Y137.250 E1566.64966
G0 F10500 X122.048 Y136.543
G1 F1920 X79.444 Y93.939 E1568.44414
G0 F10500 X79.282 Y93.071
G1 F1920 X122.048 Y135.836 E1570.24543
G0 F10500 X122.048 Y135.129
G1 F1920 X79.063 Y92.144 E1572.05596
G0 F10500 X78.721 Y91.095
G1 F1920 X122.048 Y134.422 E1573.88090
G0 F10500 X122.048 Y133.715
G1 F1920 X78.379 Y90.046 E1575.72024
G0 F10500 X77.761 Y88.722
G1 F1920 X122.048 Y133.008 E1577.58559
G0 F10500 X122.048 Y132.301
G1 F1920 X76.993 Y87.246 E1579.48331
G0 F10500 X73.309 Y83.562
G1 F1920 X68.896 Y79.149 E1579.66918
G0 F10500 X68.896 Y78.442
G1 F1920 X122.048 Y131.593 E1581.90793
G0 F10500 X122.048 Y130.886
G1 F1920 X68.896 Y77.735 E1584.14667
G0 F10500 X68.896 Y77.028
G1 F1920 X122.048 Y130.179 E1586.38542
G0 F10500 X122.048 Y129.472
G1 F1920 X68.896 Y76.321 E1588.62416
G0 F10500 X68.896 Y75.614
G1 F1920 X122.048 Y128.765 E1590.86290
G0 F10500 X122.048 Y128.058
G1 F1920 X68.896 Y74.907 E1593.10165
G0 F10500 X68.896 Y74.200
G1 F1920 X122.048 Y127.351 E1595.34039
G0 F10500 X122.048 Y126.644
G1 F1920 X68.896 Y73.493 E1597.57914
G0 F10500 X68.896 Y72.786
G1 F1920 X122.048 Y125.937 E1599.81788
G0 F10500 X122.048 Y125.230
G1 F1920 X68.896 Y72.078 E1602.05665
G0 F10500 X68.896 Y71.371
G1 F1920 X122.048 Y124.522 E1604.29539
G0 F10500 X122.048 Y123.815
G1 F1920 X68.896 Y70.664 E1606.53414
G0 F10500 X68.896 Y69.957
G1 F1920 X122.048 Y123.108 E1608.77288
G0 F10500 X122.048 Y122.401
G1 F1920 X68.896 Y69.250 E1611.01163
G0 F10500 X68.896 Y68.543
G1 F1920 X122.048 Y121.694 E1613.25037
G0 F10500 X122.048 Y120.987
G1 F1920 X68.896 Y67.836 E1615.48911
G0 F10500 X68.896 Y67.129
G1 F1920 X122.048 Y120.280 E1617.72786
G0 F10500 X122.048 Y119.573
G1 F1920 X68.896 Y66.422 E1619.96660
G0 F10500 X68.896 Y65.714
G1 F1920 X122.048 Y118.866 E1622.20537
G0 F10500 X122.048 Y118.158
G1 F1920 X68.896 Y65.007 E1624.44411
G0 F10500 X68.896 Y64.300
G1 F1920 X122.048 Y117.451 E1626.68286
G0 F10500 X122.048 Y116.744
G1 F1920 X68.896 Y63.593 E1628.92160
G0 F10500 X68.896 Y62.886
G1 F1920 X122.048 Y116.037 E1631.16035
G0 F10500 X122.048 Y115.330
G1 F1920 X68.896 Y62.179 E1633.39909
G0 F10500 X68.896 Y61.472
G1 F1920 X122.048 Y114.623 E1635.63784
G0 F10500 X122.048 Y113.916
G1 F1920 X68.896 Y60.765 E1637.87658
G0 F10500 X68.896 Y60.058
G1 F1920 X122.048 Y113.209 E1640.11532
G0 F10500 X122.048 Y112.502
G1 F1920 X68.896 Y59.351 E1642.35407
G0 F10500 X68.896 Y58.643
G1 F1920 X122.048 Y111.794 E1644.59281
G0 F10500 X122.048 Y111.087
G1 F1920 X68.896 Y57.936 E1646.83156
G0 F10500 X68.896 Y57.229
G1 F1920 X122.048 Y110.380 E1649.07030
G0 F10500 X122.048 Y109.673
G1 F1920 X68.896 Y56.522 E1651.30905
G0 F10500 X68.896 Y55.815
G1 F1920 X122.048 Y108.966 E1653.54779
G0 F10500 X122.048 Y108.259
G1 F1920 X68.896 Y55.108 E1655.78654
G0 F10500 X68.896 Y54.401
G1 F1920 X122.048 Y107.552 E1658.02528
G0 F10500 X122.048 Y106.845
G1 F1920 X69.589 Y54.386 E1660.23486
G0 F10500 X70.296 Y54.386
G1 F1920 X122.048 Y106.138 E1662.41465
G0 F10500 X122.048 Y105.431
G1 F1920 X71.003 Y54.386 E1664.56467
G0 F10500 X71.710 Y54.386
G1 F1920 X122.048 Y104.723 E1666.68489
G0 F10500 X122.048 Y104.016
G1 F1920 X72.417 Y54.386 E1668.77533
G0 F10500 X73.124 Y54.386
G1 F1920 X122.048 Y103.309 E1670.83599
G0 F10500 X122.048 Y102.602
G1 F1920 X73.831 Y54.386 E1672.86687
G0 F10500 X74.538 Y54.386
G1 F1920 X122.048 Y101.895 E1674.86798
G0 F10500 X122.048 Y101.188
G1 F1920 X75.246 Y54.386 E1676.83928
G0 F10500 X75.953 Y54.386
G1 F1920 X77.256 Y55.689 E1676.89416
G0 F10500 X77.584 Y56.017
G1 F1920 X122.048 Y100.481 E1678.76699
G0 F10500 X122.048 Y99.774
G1 F1920 X78.583 Y56.309 E1680.59774
G0 F10500 X79.306 Y56.326
G1 F1920 X122.048 Y99.067 E1682.39801
G0 F10500 X122.048 Y98.359
